P2
# scootbar snapshot `bar-1x`: a 160x20 bar at scale 1: three sections, an icon, .notdef, three classes
# Made by the test of that name in src/snapshots/tests.rs; to update it,
# SCOOTBAR_BLESS=1 cargo test -p scootbar snapshots (src/snapshots.rs).
160 20
255
0 0 0 0 0 0 0 0 0 0 0 0 0 0 0 0 0 0 0 0 0 0 0 0 0 0 0 0 0 0 0 0 0 0 0 0 0 0 0 0 0 0 0 0 0 0 0 0 0 0 0 0 0 0 0 0 0 0 0 0 0 0 0 0 0 0 0 0 0 0 0 0 0 0 0 0 0 0 0 0 0 0 0 0 0 0 0 0 0 0 0 0 0 0 0 0 0 0 0 0 0 0 0 0 0 0 0 0 0 0 0 0 0 0 0 0 0 0 0 0 0 0 0 0 0 0 0 0 0 0 0 0 0 0 0 0 0 0 0 0 0 0 0 0 0 0 0 0 0 0 0 0 0 0 0 0 0 0 0 0
0 0 0 0 0 0 0 0 0 0 0 0 0 0 0 0 0 0 0 0 0 0 0 0 0 0 0 0 0 0 0 0 0 0 0 0 0 0 0 0 0 0 0 0 0 0 0 0 0 0 0 0 0 0 0 0 0 0 0 0 0 0 0 0 0 0 0 0 0 0 0 0 0 0 0 0 0 0 0 0 0 0 0 0 0 0 0 0 0 0 0 0 0 0 0 0 0 0 0 0 0 0 0 0 0 0 0 0 0 0 0 0 0 0 0 0 0 0 0 0 0 0 0 0 0 0 0 0 0 0 0 0 0 0 0 0 0 0 0 0 0 0 0 0 0 0 0 0 0 0 0 0 0 0 0 0 0 0 0 0
0 0 0 0 0 0 0 0 0 0 0 0 0 0 0 0 0 0 0 0 0 0 0 0 0 0 0 0 0 0 0 0 0 0 0 0 0 0 0 0 0 0 0 0 0 0 0 0 0 0 0 0 0 0 0 0 0 0 0 0 0 0 0 0 0 0 0 0 0 0 0 0 0 0 0 0 0 0 0 0 0 0 0 0 0 0 0 0 0 0 0 0 0 0 0 0 0 0 0 0 0 0 0 0 0 0 0 0 0 0 0 0 0 0 0 0 0 0 0 0 0 0 0 0 0 0 0 0 0 0 0 0 0 0 0 0 0 0 0 0 0 0 0 0 0 0 0 0 0 0 0 0 0 0 0 0 0 0 0 0
0 0 0 0 0 0 0 0 0 0 0 0 0 0 0 0 0 0 0 0 0 0 0 0 0 0 0 0 0 0 0 0 0 0 0 0 0 0 0 0 0 0 0 0 0 0 0 0 0 0 0 0 0 0 0 0 0 0 0 0 0 0 0 0 0 0 0 0 0 0 0 0 0 0 0 0 0 0 0 0 0 0 0 0 0 0 0 0 0 0 0 0 0 0 0 0 0 0 0 0 0 0 0 0 0 0 0 0 0 0 0 0 0 0 0 0 0 0 0 0 0 0 0 0 0 0 0 0 0 0 0 0 0 0 0 0 0 0 0 0 0 0 0 0 0 0 0 0 0 0 0 0 0 0 0 0 0 0 0 0
0 0 0 0 0 0 0 0 0 0 0 0 0 0 41 204 204 122 0 0 0 0 0 0 0 0 0 0 0 0 0 41 204 204 122 0 0 0 0 0 0 0 0 0 0 0 0 0 0 0 0 0 0 0 0 0 0 0 0 0 0 0 0 0 0 21 102 102 61 0 0 0 0 0 0 0 0 0 0 0 0 61 102 102 102 102 102 0 0 0 0 0 0 0 0 0 0 0 0 31 154 154 92 0 0 0 0 0 0 0 0 0 0 0 0 0 31 154 154 92 0 0 0 0 31 154 154 92 0 0 0 0 0 0 0 0 0 0 0 0 0 31 154 154 92 0 0 0 0 31 154 154 92 0 0 0 0 0 0 0
0 0 0 0 0 0 0 0 0 41 102 0 0 0 31 153 153 133 102 0 0 0 0 0 0 0 0 0 0 0 0 31 153 153 133 102 0 0 0 61 82 0 0 41 102 0 0 0 0 0 0 0 0 0 0 0 0 0 0 0 0 0 0 0 31 56 77 77 67 51 0 0 0 0 0 0 0 0 0 0 0 77 128 128 128 128 128 0 0 0 0 0 0 0 0 0 0 0 46 84 115 115 100 77 0 0 0 0 0 0 0 0 0 0 0 46 84 115 115 100 77 0 0 46 84 115 115 100 77 0 0 0 0 0 0 0 0 0 0 0 46 84 115 115 100 77 0 0 46 84 115 115 100 77 0 0 0 0 0 0
0 0 0 0 0 0 0 0 0 102 255 0 0 0 0 0 0 102 255 0 0 0 0 0 89 161 0 0 0 0 0 0 0 0 102 255 0 0 0 153 204 0 0 102 255 0 0 0 0 0 0 0 0 0 0 0 0 0 0 0 0 0 0 0 77 102 0 0 51 128 0 0 0 0 0 0 0 0 0 0 0 77 128 128 128 128 128 0 0 0 0 0 0 0 0 0 0 0 115 154 0 0 77 192 0 0 0 0 0 0 0 0 0 0 0 115 154 0 0 77 192 0 0 115 154 0 0 77 192 0 0 0 0 0 0 0 0 0 0 0 115 154 0 0 77 192 0 0 115 154 0 0 77 192 0 0 0 0 0 0
0 0 0 0 0 0 0 0 0 102 255 0 0 0 0 0 0 102 255 0 0 0 0 0 89 161 0 0 0 0 0 0 0 0 102 255 0 0 0 153 204 0 0 102 255 0 0 0 0 0 0 0 0 0 0 0 0 0 0 0 0 0 0 0 77 102 0 0 51 128 0 0 0 0 0 0 0 0 0 0 0 77 128 128 128 128 128 0 0 0 0 0 0 0 0 0 0 0 115 154 0 0 77 192 0 0 0 0 0 0 0 0 0 0 0 115 154 0 0 77 192 0 0 115 154 0 0 77 192 0 0 0 0 0 0 0 0 0 0 0 115 154 0 0 77 192 0 0 115 154 0 0 77 192 0 0 0 0 0 0
0 0 0 0 0 0 0 0 0 41 102 0 0 0 31 153 153 133 102 0 0 0 0 0 0 0 0 0 0 0 0 31 153 153 133 102 0 0 0 61 112 153 153 133 102 0 0 0 0 0 0 0 0 0 0 0 0 0 0 0 0 0 0 0 31 56 77 77 67 51 0 0 0 0 0 0 0 0 0 0 0 77 128 128 128 128 128 0 0 0 0 0 0 0 0 0 0 0 46 84 115 115 100 77 0 0 0 0 0 0 0 0 0 0 0 46 62 0 0 31 77 0 0 46 84 115 115 100 77 0 0 0 0 0 0 0 0 0 0 0 46 84 115 115 100 77 0 0 46 62 0 0 31 77 0 0 0 0 0 0
0 0 0 0 0 0 0 0 0 20 51 0 0 31 82 204 204 122 0 0 0 0 0 0 0 0 0 0 0 0 0 41 204 204 143 51 0 0 0 0 41 204 204 143 51 0 0 0 0 0 0 0 0 0 0 0 0 0 0 0 0 0 0 0 16 41 102 102 72 26 0 0 0 0 0 0 0 0 0 0 0 77 128 128 128 128 128 0 0 0 0 0 0 0 0 0 0 0 23 62 154 154 108 38 0 0 0 0 0 0 0 0 0 0 0 23 31 0 0 15 38 0 0 0 31 154 154 108 38 0 0 0 0 0 0 0 0 0 0 0 23 62 154 154 92 0 0 0 23 31 0 0 15 38 0 0 0 0 0 0
0 0 0 0 0 0 0 0 0 102 255 0 0 153 204 0 0 0 0 0 0 0 0 0 64 115 0 0 0 0 0 0 0 0 102 255 0 0 0 0 0 0 0 102 255 0 0 0 0 0 0 0 0 0 0 0 0 0 0 0 0 0 0 0 77 102 0 0 51 128 0 0 0 0 0 0 0 0 0 0 0 77 128 128 128 128 128 0 0 0 0 0 0 0 0 0 0 0 115 154 0 0 77 192 0 0 0 0 0 0 0 0 0 0 0 115 154 0 0 77 192 0 0 0 0 0 0 77 192 0 0 0 0 0 0 0 0 0 0 0 115 154 0 0 0 0 0 0 115 154 0 0 77 192 0 0 0 0 0 0
0 0 0 0 0 0 0 0 0 102 255 0 0 153 204 0 0 0 0 0 0 0 0 0 115 207 0 0 0 0 0 0 0 0 102 255 0 0 0 0 0 0 0 102 255 0 0 0 0 0 0 0 0 0 0 0 0 0 0 0 0 0 0 0 77 102 0 0 51 128 0 0 0 0 0 0 0 0 0 0 0 77 128 128 128 128 128 0 0 0 0 0 0 0 0 0 0 0 115 154 0 0 77 192 0 0 0 0 0 0 0 0 0 0 0 115 154 0 0 77 192 0 0 0 0 0 0 77 192 0 0 0 0 0 0 0 0 0 0 0 115 154 0 0 0 0 0 0 115 154 0 0 77 192 0 0 0 0 0 0
0 0 0 0 0 0 0 0 0 61 153 0 0 92 143 102 102 61 0 0 0 0 0 0 0 0 0 0 0 0 0 20 102 102 122 153 0 0 0 0 0 0 0 61 153 0 0 0 0 0 0 0 0 0 0 0 0 0 0 0 0 0 0 0 46 61 0 0 31 77 0 0 0 0 0 0 0 0 0 0 0 77 128 128 128 128 128 0 0 0 0 0 0 0 0 0 0 0 69 108 77 77 92 115 0 0 0 0 0 0 0 0 0 0 0 69 108 77 77 92 115 0 0 0 15 77 77 92 115 0 0 0 0 0 0 0 0 0 0 0 69 92 0 0 0 0 0 0 69 92 0 0 46 115 0 0 0 0 0 0
0 0 0 0 0 0 0 0 0 0 0 0 0 0 51 255 255 153 0 0 0 0 0 0 0 0 0 0 0 0 0 51 255 255 153 0 0 0 0 0 0 0 0 0 0 0 0 0 0 0 0 0 0 0 0 0 0 0 0 0 0 0 0 0 0 0 0 0 0 0 0 0 0 0 0 0 0 0 0 0 0 77 128 128 128 128 128 0 0 0 0 0 0 0 0 0 0 0 0 38 192 192 115 0 0 0 0 0 0 0 0 0 0 0 0 0 38 192 192 115 0 0 0 0 38 192 192 115 0 0 0 0 0 0 0 0 0 0 0 0 0 0 0 0 0 0 0 0 0 0 0 0 0 0 0 0 0 0 0 0
0 0 0 0 0 0 0 0 0 0 0 0 0 0 0 0 0 0 0 0 0 0 0 0 0 0 0 0 0 0 0 0 0 0 0 0 0 0 0 0 0 0 0 0 0 0 0 0 0 0 0 0 0 0 0 0 0 0 0 0 0 0 0 0 0 0 0 0 0 0 0 0 0 0 0 0 0 0 0 0 0 0 0 0 0 0 0 0 0 0 0 0 0 0 0 0 0 0 0 0 0 0 0 0 0 0 0 0 0 0 0 0 0 0 0 0 0 0 0 0 0 0 0 0 0 0 0 0 0 0 0 0 0 0 0 0 0 0 0 0 0 0 0 0 0 0 0 0 0 0 0 0 0 0 0 0 0 0 0 0
0 0 0 0 0 0 0 0 0 0 0 0 0 0 0 0 0 0 0 0 0 0 0 0 0 0 0 0 0 0 0 0 0 0 0 0 0 0 0 0 0 0 0 0 0 0 0 0 0 0 0 0 0 0 0 0 0 0 0 0 0 0 0 0 0 0 0 0 0 0 0 0 0 0 0 0 0 0 0 0 0 0 0 0 0 0 0 0 0 0 0 0 0 0 0 0 0 0 0 0 0 0 0 0 0 0 0 0 0 0 0 0 0 0 0 0 0 0 0 0 0 0 0 0 0 0 0 0 0 0 0 0 0 0 0 0 0 0 0 0 0 0 0 0 0 0 0 0 0 0 0 0 0 0 0 0 0 0 0 0
0 0 0 0 0 0 0 0 0 0 0 0 0 0 0 0 0 0 0 0 0 0 0 0 0 0 0 0 0 0 0 0 0 0 0 0 0 0 0 0 0 0 0 0 0 0 0 0 0 0 0 0 0 0 0 0 0 0 0 0 0 0 0 0 0 0 0 0 0 0 0 0 0 0 0 0 0 0 0 0 0 0 0 0 0 0 0 0 0 0 0 0 0 0 0 0 0 0 0 0 0 0 0 0 0 0 0 0 0 0 0 0 0 0 0 0 0 0 0 0 0 0 0 0 0 0 0 0 0 0 0 0 0 0 0 0 0 0 0 0 0 0 0 0 0 0 0 0 0 0 0 0 0 0 0 0 0 0 0 0
0 0 0 0 0 0 0 0 0 0 0 0 0 0 0 0 0 0 0 0 0 0 0 0 0 0 0 0 0 0 0 0 0 0 0 0 0 0 0 0 0 0 0 0 0 0 0 0 0 0 0 0 0 0 0 0 0 0 0 0 0 0 0 0 0 0 0 0 0 0 0 0 0 0 0 0 0 0 0 0 0 0 0 0 0 0 0 0 0 0 0 0 0 0 0 0 0 0 0 0 0 0 0 0 0 0 0 0 0 0 0 0 0 0 0 0 0 0 0 0 0 0 0 0 0 0 0 0 0 0 0 0 0 0 0 0 0 0 0 0 0 0 0 0 0 0 0 0 0 0 0 0 0 0 0 0 0 0 0 0
0 0 0 0 0 0 0 0 0 0 0 0 0 0 0 0 0 0 0 0 0 0 0 0 0 0 0 0 0 0 0 0 0 0 0 0 0 0 0 0 0 0 0 0 0 0 0 0 0 0 0 0 0 0 0 0 0 0 0 0 0 0 0 0 0 0 0 0 0 0 0 0 0 0 0 0 0 0 0 0 0 0 0 0 0 0 0 0 0 0 0 0 0 0 0 0 0 0 0 0 0 0 0 0 0 0 0 0 0 0 0 0 0 0 0 0 0 0 0 0 0 0 0 0 0 0 0 0 0 0 0 0 0 0 0 0 0 0 0 0 0 0 0 0 0 0 0 0 0 0 0 0 0 0 0 0 0 0 0 0
0 0 0 0 0 0 0 0 0 0 0 0 0 0 0 0 0 0 0 0 0 0 0 0 0 0 0 0 0 0 0 0 0 0 0 0 0 0 0 0 0 0 0 0 0 0 0 0 0 0 0 0 0 0 0 0 0 0 0 0 0 0 0 0 0 0 0 0 0 0 0 0 0 0 0 0 0 0 0 0 0 0 0 0 0 0 0 0 0 0 0 0 0 0 0 0 0 0 0 0 0 0 0 0 0 0 0 0 0 0 0 0 0 0 0 0 0 0 0 0 0 0 0 0 0 0 0 0 0 0 0 0 0 0 0 0 0 0 0 0 0 0 0 0 0 0 0 0 0 0 0 0 0 0 0 0 0 0 0 0
