P2
# scootbar snapshot `bar-hover-1x`: the 160x20 bar at scale 1 with the pointer over its bound right module
# Made by the test of that name in src/snapshots/tests.rs; to update it,
# SCOOTBAR_BLESS=1 cargo test -p scootbar snapshots (src/snapshots.rs).
160 20
255
0 0 0 0 0 0 0 0 0 0 0 0 0 0 0 0 0 0 0 0 0 0 0 0 0 0 0 0 0 0 0 0 0 0 0 0 0 0 0 0 0 0 0 0 0 0 0 0 0 0 0 0 0 0 0 0 0 0 0 0 0 0 0 0 0 0 0 0 0 0 0 0 0 0 0 0 0 0 0 0 0 0 0 0 0 0 0 0 0 0 0 0 0 0 0 0 0 0 0 0 0 0 0 0 0 0 0 0 0 0 0 0 0 0 0 0 0 0 0 0 0 0 0 0 0 0 0 0 0 0 0 0 0 0 0 0 0 0 0 0 0 0 0 0 0 0 0 0 0 0 0 0 0 0 0 0 0 0 0 0
0 0 0 0 0 0 0 0 0 0 0 0 0 0 0 0 0 0 0 0 0 0 0 0 0 0 0 0 0 0 0 0 0 0 0 0 0 0 0 0 0 0 0 0 0 0 0 0 0 0 0 0 0 0 0 0 0 0 0 0 0 0 0 0 0 0 0 0 0 0 0 0 0 0 0 0 0 0 0 0 0 0 0 0 0 0 0 0 0 0 0 0 0 0 0 0 0 0 0 0 0 0 0 0 0 0 0 0 0 0 0 0 0 0 0 0 0 0 0 0 0 0 0 0 0 0 0 0 0 0 0 0 0 0 0 0 0 0 0 0 0 0 0 0 0 0 0 0 0 0 0 0 0 0 0 0 0 0 0 0
0 0 0 0 0 0 0 0 0 0 0 0 0 0 0 0 0 0 0 0 0 0 0 0 0 0 0 0 0 0 0 0 0 0 0 0 0 0 0 0 0 0 0 0 0 0 0 0 0 0 0 0 0 0 0 0 0 0 0 0 0 0 0 0 0 0 0 0 0 0 0 0 0 0 0 0 0 0 0 0 0 0 0 0 0 0 0 0 0 0 0 0 0 0 0 0 0 0 0 0 0 0 0 0 0 0 0 0 0 0 0 0 0 0 0 0 0 0 0 0 0 0 0 0 0 0 0 0 0 0 0 0 0 0 0 0 0 0 0 0 0 0 0 0 0 0 0 0 0 0 0 0 0 0 0 0 0 0 0 0
0 0 0 0 0 0 0 0 0 0 0 0 0 0 0 0 0 0 0 0 0 0 0 0 0 0 0 0 0 0 0 0 0 0 0 0 0 0 0 0 0 0 0 0 0 0 0 0 0 0 0 0 0 0 0 0 0 0 0 0 0 0 0 0 0 0 0 0 0 0 0 0 0 0 0 0 0 0 0 0 0 0 0 0 0 0 0 0 0 0 0 0 0 0 0 0 0 0 0 0 0 0 0 0 0 0 0 0 0 0 0 0 0 0 0 0 0 0 0 0 0 0 0 0 0 0 0 0 0 0 0 0 0 0 0 0 0 0 0 0 0 0 0 0 0 0 0 0 0 0 0 0 0 0 0 0 0 0 0 0
0 0 0 0 0 0 0 0 0 0 0 0 0 0 41 204 204 122 0 0 0 0 0 0 0 0 0 0 0 0 0 41 204 204 122 0 0 0 0 0 0 0 0 0 0 0 0 0 0 0 0 0 0 0 0 0 0 0 0 0 0 0 0 0 0 21 102 102 61 0 0 0 0 0 0 0 0 0 0 0 0 61 102 102 102 102 102 0 0 0 0 0 0 0 0 0 0 0 0 36 179 179 107 0 0 0 0 0 0 0 0 0 0 0 0 0 36 179 179 107 0 0 0 0 36 179 179 107 0 0 0 0 0 0 0 0 0 0 0 0 0 36 179 179 107 0 0 0 0 36 179 179 107 0 0 0 0 0 0 0
0 0 0 0 0 0 0 0 0 41 102 0 0 0 31 153 153 133 102 0 0 0 0 0 0 0 0 0 0 0 0 31 153 153 133 102 0 0 0 61 82 0 0 41 102 0 0 0 0 0 0 0 0 0 0 0 0 0 0 0 0 0 0 0 31 56 77 77 67 51 0 0 0 0 0 0 0 0 0 0 0 77 128 128 128 128 128 0 0 0 0 0 0 0 0 0 0 0 54 98 134 134 117 90 0 0 0 0 0 0 0 0 0 0 0 54 98 134 134 117 90 0 0 54 98 134 134 117 90 0 0 0 0 0 0 0 0 0 0 0 54 98 134 134 117 90 0 0 54 98 134 134 117 90 0 0 0 0 0 0
0 0 0 0 0 0 0 0 0 102 255 0 0 0 0 0 0 102 255 0 0 0 0 0 89 161 0 0 0 0 0 0 0 0 102 255 0 0 0 153 204 0 0 102 255 0 0 0 0 0 0 0 0 0 0 0 0 0 0 0 0 0 0 0 77 102 0 0 51 128 0 0 0 0 0 0 0 0 0 0 0 77 128 128 128 128 128 0 0 0 0 0 0 0 0 0 0 0 134 179 0 0 90 224 0 0 0 0 0 0 0 0 0 0 0 134 179 0 0 90 224 0 0 134 179 0 0 90 224 0 0 0 0 0 0 0 0 0 0 0 134 179 0 0 90 224 0 0 134 179 0 0 90 224 0 0 0 0 0 0
0 0 0 0 0 0 0 0 0 102 255 0 0 0 0 0 0 102 255 0 0 0 0 0 89 161 0 0 0 0 0 0 0 0 102 255 0 0 0 153 204 0 0 102 255 0 0 0 0 0 0 0 0 0 0 0 0 0 0 0 0 0 0 0 77 102 0 0 51 128 0 0 0 0 0 0 0 0 0 0 0 77 128 128 128 128 128 0 0 0 0 0 0 0 0 0 0 0 134 179 0 0 90 224 0 0 0 0 0 0 0 0 0 0 0 134 179 0 0 90 224 0 0 134 179 0 0 90 224 0 0 0 0 0 0 0 0 0 0 0 134 179 0 0 90 224 0 0 134 179 0 0 90 224 0 0 0 0 0 0
0 0 0 0 0 0 0 0 0 41 102 0 0 0 31 153 153 133 102 0 0 0 0 0 0 0 0 0 0 0 0 31 153 153 133 102 0 0 0 61 112 153 153 133 102 0 0 0 0 0 0 0 0 0 0 0 0 0 0 0 0 0 0 0 31 56 77 77 67 51 0 0 0 0 0 0 0 0 0 0 0 77 128 128 128 128 128 0 0 0 0 0 0 0 0 0 0 0 54 98 134 134 117 90 0 0 0 0 0 0 0 0 0 0 0 54 72 0 0 36 90 0 0 54 98 134 134 117 90 0 0 0 0 0 0 0 0 0 0 0 54 98 134 134 117 90 0 0 54 72 0 0 36 90 0 0 0 0 0 0
0 0 0 0 0 0 0 0 0 20 51 0 0 31 82 204 204 122 0 0 0 0 0 0 0 0 0 0 0 0 0 41 204 204 143 51 0 0 0 0 41 204 204 143 51 0 0 0 0 0 0 0 0 0 0 0 0 0 0 0 0 0 0 0 16 41 102 102 72 26 0 0 0 0 0 0 0 0 0 0 0 77 128 128 128 128 128 0 0 0 0 0 0 0 0 0 0 0 27 72 179 179 126 45 0 0 0 0 0 0 0 0 0 0 0 27 36 0 0 18 45 0 0 0 36 179 179 126 45 0 0 0 0 0 0 0 0 0 0 0 27 72 179 179 107 0 0 0 27 36 0 0 18 45 0 0 0 0 0 0
0 0 0 0 0 0 0 0 0 102 255 0 0 153 204 0 0 0 0 0 0 0 0 0 64 115 0 0 0 0 0 0 0 0 102 255 0 0 0 0 0 0 0 102 255 0 0 0 0 0 0 0 0 0 0 0 0 0 0 0 0 0 0 0 77 102 0 0 51 128 0 0 0 0 0 0 0 0 0 0 0 77 128 128 128 128 128 0 0 0 0 0 0 0 0 0 0 0 134 179 0 0 90 224 0 0 0 0 0 0 0 0 0 0 0 134 179 0 0 90 224 0 0 0 0 0 0 90 224 0 0 0 0 0 0 0 0 0 0 0 134 179 0 0 0 0 0 0 134 179 0 0 90 224 0 0 0 0 0 0
0 0 0 0 0 0 0 0 0 102 255 0 0 153 204 0 0 0 0 0 0 0 0 0 115 207 0 0 0 0 0 0 0 0 102 255 0 0 0 0 0 0 0 102 255 0 0 0 0 0 0 0 0 0 0 0 0 0 0 0 0 0 0 0 77 102 0 0 51 128 0 0 0 0 0 0 0 0 0 0 0 77 128 128 128 128 128 0 0 0 0 0 0 0 0 0 0 0 134 179 0 0 90 224 0 0 0 0 0 0 0 0 0 0 0 134 179 0 0 90 224 0 0 0 0 0 0 90 224 0 0 0 0 0 0 0 0 0 0 0 134 179 0 0 0 0 0 0 134 179 0 0 90 224 0 0 0 0 0 0
0 0 0 0 0 0 0 0 0 61 153 0 0 92 143 102 102 61 0 0 0 0 0 0 0 0 0 0 0 0 0 20 102 102 122 153 0 0 0 0 0 0 0 61 153 0 0 0 0 0 0 0 0 0 0 0 0 0 0 0 0 0 0 0 46 61 0 0 31 77 0 0 0 0 0 0 0 0 0 0 0 77 128 128 128 128 128 0 0 0 0 0 0 0 0 0 0 0 81 126 90 90 107 134 0 0 0 0 0 0 0 0 0 0 0 81 126 90 90 107 134 0 0 0 18 90 90 107 134 0 0 0 0 0 0 0 0 0 0 0 81 107 0 0 0 0 0 0 81 107 0 0 54 134 0 0 0 0 0 0
0 0 0 0 0 0 0 0 0 0 0 0 0 0 51 255 255 153 0 0 0 0 0 0 0 0 0 0 0 0 0 51 255 255 153 0 0 0 0 0 0 0 0 0 0 0 0 0 0 0 0 0 0 0 0 0 0 0 0 0 0 0 0 0 0 0 0 0 0 0 0 0 0 0 0 0 0 0 0 0 0 77 128 128 128 128 128 0 0 0 0 0 0 0 0 0 0 0 0 45 224 224 134 0 0 0 0 0 0 0 0 0 0 0 0 0 45 224 224 134 0 0 0 0 45 224 224 134 0 0 0 0 0 0 0 0 0 0 0 0 0 0 0 0 0 0 0 0 0 0 0 0 0 0 0 0 0 0 0 0
0 0 0 0 0 0 0 0 0 0 0 0 0 0 0 0 0 0 0 0 0 0 0 0 0 0 0 0 0 0 0 0 0 0 0 0 0 0 0 0 0 0 0 0 0 0 0 0 0 0 0 0 0 0 0 0 0 0 0 0 0 0 0 0 0 0 0 0 0 0 0 0 0 0 0 0 0 0 0 0 0 0 0 0 0 0 0 0 0 0 0 0 0 0 0 0 0 0 0 0 0 0 0 0 0 0 0 0 0 0 0 0 0 0 0 0 0 0 0 0 0 0 0 0 0 0 0 0 0 0 0 0 0 0 0 0 0 0 0 0 0 0 0 0 0 0 0 0 0 0 0 0 0 0 0 0 0 0 0 0
0 0 0 0 0 0 0 0 0 0 0 0 0 0 0 0 0 0 0 0 0 0 0 0 0 0 0 0 0 0 0 0 0 0 0 0 0 0 0 0 0 0 0 0 0 0 0 0 0 0 0 0 0 0 0 0 0 0 0 0 0 0 0 0 0 0 0 0 0 0 0 0 0 0 0 0 0 0 0 0 0 0 0 0 0 0 0 0 0 0 0 0 0 0 0 0 0 0 0 0 0 0 0 0 0 0 0 0 0 0 0 0 0 0 0 0 0 0 0 0 0 0 0 0 0 0 0 0 0 0 0 0 0 0 0 0 0 0 0 0 0 0 0 0 0 0 0 0 0 0 0 0 0 0 0 0 0 0 0 0
0 0 0 0 0 0 0 0 0 0 0 0 0 0 0 0 0 0 0 0 0 0 0 0 0 0 0 0 0 0 0 0 0 0 0 0 0 0 0 0 0 0 0 0 0 0 0 0 0 0 0 0 0 0 0 0 0 0 0 0 0 0 0 0 0 0 0 0 0 0 0 0 0 0 0 0 0 0 0 0 0 0 0 0 0 0 0 0 0 0 0 0 0 0 0 0 0 0 0 0 0 0 0 0 0 0 0 0 0 0 0 0 0 0 0 0 0 0 0 0 0 0 0 0 0 0 0 0 0 0 0 0 0 0 0 0 0 0 0 0 0 0 0 0 0 0 0 0 0 0 0 0 0 0 0 0 0 0 0 0
0 0 0 0 0 0 0 0 0 0 0 0 0 0 0 0 0 0 0 0 0 0 0 0 0 0 0 0 0 0 0 0 0 0 0 0 0 0 0 0 0 0 0 0 0 0 0 0 0 0 0 0 0 0 0 0 0 0 0 0 0 0 0 0 0 0 0 0 0 0 0 0 0 0 0 0 0 0 0 0 0 0 0 0 0 0 0 0 0 0 0 0 0 0 0 0 0 0 0 0 0 0 0 0 0 0 0 0 0 0 0 0 0 0 0 0 0 0 0 0 0 0 0 0 0 0 0 0 0 0 0 0 0 0 0 0 0 0 0 0 0 0 0 0 0 0 0 0 0 0 0 0 0 0 0 0 0 0 0 0
0 0 0 0 0 0 0 0 0 0 0 0 0 0 0 0 0 0 0 0 0 0 0 0 0 0 0 0 0 0 0 0 0 0 0 0 0 0 0 0 0 0 0 0 0 0 0 0 0 0 0 0 0 0 0 0 0 0 0 0 0 0 0 0 0 0 0 0 0 0 0 0 0 0 0 0 0 0 0 0 0 0 0 0 0 0 0 0 0 0 0 0 0 0 0 0 0 0 0 0 0 0 0 0 0 0 0 0 0 0 0 0 0 0 0 0 0 0 0 0 0 0 0 0 0 0 0 0 0 0 0 0 0 0 0 0 0 0 0 0 0 0 0 0 0 0 0 0 0 0 0 0 0 0 0 0 0 0 0 0
0 0 0 0 0 0 0 0 0 0 0 0 0 0 0 0 0 0 0 0 0 0 0 0 0 0 0 0 0 0 0 0 0 0 0 0 0 0 0 0 0 0 0 0 0 0 0 0 0 0 0 0 0 0 0 0 0 0 0 0 0 0 0 0 0 0 0 0 0 0 0 0 0 0 0 0 0 0 0 0 0 0 0 0 0 0 0 0 0 0 0 0 0 0 0 0 0 0 0 0 0 0 0 0 0 0 0 0 0 0 0 0 0 0 0 0 0 0 0 0 0 0 0 0 0 0 0 0 0 0 0 0 0 0 0 0 0 0 0 0 0 0 0 0 0 0 0 0 0 0 0 0 0 0 0 0 0 0 0 0
