P2
# scootbar snapshot `bar-translucent-1x`: the color plane of the bar at scale 1 over a 0x80 background at opacity 128, premultiplied
# Made by the test of that name in src/snapshots/tests.rs; to update it,
# SCOOTBAR_BLESS=1 cargo test -p scootbar snapshots (src/snapshots.rs).
160 20
255
64 64 64 64 64 64 64 64 64 64 64 64 64 64 64 64 64 64 64 64 64 64 64 64 64 64 64 64 64 64 64 64 64 64 64 64 64 64 64 64 64 64 64 64 64 64 64 64 64 64 64 64 64 64 64 64 64 64 64 64 64 64 64 64 64 64 64 64 64 64 64 64 64 64 64 64 64 64 64 64 64 64 64 64 64 64 64 64 64 64 64 64 64 64 64 64 64 64 64 64 64 64 64 64 64 64 64 64 64 64 64 64 64 64 64 64 64 64 64 64 64 64 64 64 64 64 64 64 64 64 64 64 64 64 64 64 64 64 64 64 64 64 64 64 64 64 64 64 64 64 64 64 64 64 64 64 64 64 64 64
64 64 64 64 64 64 64 64 64 64 64 64 64 64 64 64 64 64 64 64 64 64 64 64 64 64 64 64 64 64 64 64 64 64 64 64 64 64 64 64 64 64 64 64 64 64 64 64 64 64 64 64 64 64 64 64 64 64 64 64 64 64 64 64 64 64 64 64 64 64 64 64 64 64 64 64 64 64 64 64 64 64 64 64 64 64 64 64 64 64 64 64 64 64 64 64 64 64 64 64 64 64 64 64 64 64 64 64 64 64 64 64 64 64 64 64 64 64 64 64 64 64 64 64 64 64 64 64 64 64 64 64 64 64 64 64 64 64 64 64 64 64 64 64 64 64 64 64 64 64 64 64 64 64 64 64 64 64 64 64
64 64 64 64 64 64 64 64 64 64 64 64 64 64 64 64 64 64 64 64 64 64 64 64 64 64 64 64 64 64 64 64 64 64 64 64 64 64 64 64 64 64 64 64 64 64 64 64 64 64 64 64 64 64 64 64 64 64 64 64 64 64 64 64 64 64 64 64 64 64 64 64 64 64 64 64 64 64 64 64 64 64 64 64 64 64 64 64 64 64 64 64 64 64 64 64 64 64 64 64 64 64 64 64 64 64 64 64 64 64 64 64 64 64 64 64 64 64 64 64 64 64 64 64 64 64 64 64 64 64 64 64 64 64 64 64 64 64 64 64 64 64 64 64 64 64 64 64 64 64 64 64 64 64 64 64 64 64 64 64
64 64 64 64 64 64 64 64 64 64 64 64 64 64 64 64 64 64 64 64 64 64 64 64 64 64 64 64 64 64 64 64 64 64 64 64 64 64 64 64 64 64 64 64 64 64 64 64 64 64 64 64 64 64 64 64 64 64 64 64 64 64 64 64 64 64 64 64 64 64 64 64 64 64 64 64 64 64 64 64 64 64 64 64 64 64 64 64 64 64 64 64 64 64 64 64 64 64 64 64 64 64 64 64 64 64 64 64 64 64 64 64 64 64 64 64 64 64 64 64 64 64 64 64 64 64 64 64 64 64 64 64 64 64 64 64 64 64 64 64 64 64 64 64 64 64 64 64 64 64 64 64 64 64 64 64 64 64 64 64
64 64 64 64 64 64 64 64 64 64 64 64 64 64 95 217 217 155 64 64 64 64 64 64 64 64 64 64 64 64 64 95 217 217 155 64 64 64 64 64 64 64 64 64 64 64 64 64 64 64 64 64 64 64 64 64 64 64 64 64 64 64 64 64 64 74 115 115 95 64 64 64 64 64 64 64 64 64 64 64 64 95 115 115 115 115 115 64 64 64 64 64 64 64 64 64 64 64 64 85 166 166 125 64 64 64 64 64 64 64 64 64 64 64 64 64 85 166 166 125 64 64 64 64 85 166 166 125 64 64 64 64 64 64 64 64 64 64 64 64 64 85 166 166 125 64 64 64 64 85 166 166 125 64 64 64 64 64 64 64
64 64 64 64 64 64 64 64 64 95 140 64 64 64 87 179 179 164 140 64 64 64 64 64 64 64 64 64 64 64 64 87 179 179 164 140 64 64 64 110 125 64 64 95 140 64 64 64 64 64 64 64 64 64 64 64 64 64 64 64 64 64 64 64 79 92 102 102 97 90 64 64 64 64 64 64 64 64 64 64 64 102 128 128 128 128 128 64 64 64 64 64 64 64 64 64 64 64 95 120 141 141 131 115 64 64 64 64 64 64 64 64 64 64 64 95 120 141 141 131 115 64 64 95 120 141 141 131 115 64 64 64 64 64 64 64 64 64 64 64 95 120 141 141 131 115 64 64 95 120 141 141 131 115 64 64 64 64 64 64
64 64 64 64 64 64 64 64 64 140 255 64 64 64 64 64 64 140 255 64 64 64 64 64 131 185 64 64 64 64 64 64 64 64 140 255 64 64 64 179 217 64 64 140 255 64 64 64 64 64 64 64 64 64 64 64 64 64 64 64 64 64 64 64 102 115 64 64 90 128 64 64 64 64 64 64 64 64 64 64 64 102 128 128 128 128 128 64 64 64 64 64 64 64 64 64 64 64 141 166 64 64 115 192 64 64 64 64 64 64 64 64 64 64 64 141 166 64 64 115 192 64 64 141 166 64 64 115 192 64 64 64 64 64 64 64 64 64 64 64 141 166 64 64 115 192 64 64 141 166 64 64 115 192 64 64 64 64 64 64
64 64 64 64 64 64 64 64 64 140 255 64 64 64 64 64 64 140 255 64 64 64 64 64 131 185 64 64 64 64 64 64 64 64 140 255 64 64 64 179 217 64 64 140 255 64 64 64 64 64 64 64 64 64 64 64 64 64 64 64 64 64 64 64 102 115 64 64 90 128 64 64 64 64 64 64 64 64 64 64 64 102 128 128 128 128 128 64 64 64 64 64 64 64 64 64 64 64 141 166 64 64 115 192 64 64 64 64 64 64 64 64 64 64 64 141 166 64 64 115 192 64 64 141 166 64 64 115 192 64 64 64 64 64 64 64 64 64 64 64 141 166 64 64 115 192 64 64 141 166 64 64 115 192 64 64 64 64 64 64
64 64 64 64 64 64 64 64 64 95 140 64 64 64 87 179 179 164 140 64 64 64 64 64 64 64 64 64 64 64 64 87 179 179 164 140 64 64 64 110 148 179 179 164 140 64 64 64 64 64 64 64 64 64 64 64 64 64 64 64 64 64 64 64 79 92 102 102 97 90 64 64 64 64 64 64 64 64 64 64 64 102 128 128 128 128 128 64 64 64 64 64 64 64 64 64 64 64 95 120 141 141 131 115 64 64 64 64 64 64 64 64 64 64 64 95 105 64 64 85 115 64 64 95 120 141 141 131 115 64 64 64 64 64 64 64 64 64 64 64 95 120 141 141 131 115 64 64 95 105 64 64 85 115 64 64 64 64 64 64
64 64 64 64 64 64 64 64 64 79 102 64 64 87 125 217 217 155 64 64 64 64 64 64 64 64 64 64 64 64 64 95 217 217 171 102 64 64 64 64 95 217 217 171 102 64 64 64 64 64 64 64 64 64 64 64 64 64 64 64 64 64 64 64 72 85 115 115 100 77 64 64 64 64 64 64 64 64 64 64 64 102 128 128 128 128 128 64 64 64 64 64 64 64 64 64 64 64 80 105 166 166 136 90 64 64 64 64 64 64 64 64 64 64 64 80 85 64 64 74 90 64 64 64 85 166 166 136 90 64 64 64 64 64 64 64 64 64 64 64 80 105 166 166 125 64 64 64 80 85 64 64 74 90 64 64 64 64 64 64
64 64 64 64 64 64 64 64 64 140 255 64 64 179 217 64 64 64 64 64 64 64 64 64 112 150 64 64 64 64 64 64 64 64 140 255 64 64 64 64 64 64 64 140 255 64 64 64 64 64 64 64 64 64 64 64 64 64 64 64 64 64 64 64 102 115 64 64 90 128 64 64 64 64 64 64 64 64 64 64 64 102 128 128 128 128 128 64 64 64 64 64 64 64 64 64 64 64 141 166 64 64 115 192 64 64 64 64 64 64 64 64 64 64 64 141 166 64 64 115 192 64 64 64 64 64 64 115 192 64 64 64 64 64 64 64 64 64 64 64 141 166 64 64 64 64 64 64 141 166 64 64 115 192 64 64 64 64 64 64
64 64 64 64 64 64 64 64 64 140 255 64 64 179 217 64 64 64 64 64 64 64 64 64 150 219 64 64 64 64 64 64 64 64 140 255 64 64 64 64 64 64 64 140 255 64 64 64 64 64 64 64 64 64 64 64 64 64 64 64 64 64 64 64 102 115 64 64 90 128 64 64 64 64 64 64 64 64 64 64 64 102 128 128 128 128 128 64 64 64 64 64 64 64 64 64 64 64 141 166 64 64 115 192 64 64 64 64 64 64 64 64 64 64 64 141 166 64 64 115 192 64 64 64 64 64 64 115 192 64 64 64 64 64 64 64 64 64 64 64 141 166 64 64 64 64 64 64 141 166 64 64 115 192 64 64 64 64 64 64
64 64 64 64 64 64 64 64 64 110 179 64 64 133 171 140 140 110 64 64 64 64 64 64 64 64 64 64 64 64 64 79 140 140 155 179 64 64 64 64 64 64 64 110 179 64 64 64 64 64 64 64 64 64 64 64 64 64 64 64 64 64 64 64 87 95 64 64 79 102 64 64 64 64 64 64 64 64 64 64 64 102 128 128 128 128 128 64 64 64 64 64 64 64 64 64 64 64 110 136 115 115 125 141 64 64 64 64 64 64 64 64 64 64 64 110 136 115 115 125 141 64 64 64 74 115 115 125 141 64 64 64 64 64 64 64 64 64 64 64 110 125 64 64 64 64 64 64 110 125 64 64 95 141 64 64 64 64 64 64
64 64 64 64 64 64 64 64 64 64 64 64 64 64 102 255 255 179 64 64 64 64 64 64 64 64 64 64 64 64 64 102 255 255 179 64 64 64 64 64 64 64 64 64 64 64 64 64 64 64 64 64 64 64 64 64 64 64 64 64 64 64 64 64 64 64 64 64 64 64 64 64 64 64 64 64 64 64 64 64 64 102 128 128 128 128 128 64 64 64 64 64 64 64 64 64 64 64 64 90 192 192 141 64 64 64 64 64 64 64 64 64 64 64 64 64 90 192 192 141 64 64 64 64 90 192 192 141 64 64 64 64 64 64 64 64 64 64 64 64 64 64 64 64 64 64 64 64 64 64 64 64 64 64 64 64 64 64 64 64
64 64 64 64 64 64 64 64 64 64 64 64 64 64 64 64 64 64 64 64 64 64 64 64 64 64 64 64 64 64 64 64 64 64 64 64 64 64 64 64 64 64 64 64 64 64 64 64 64 64 64 64 64 64 64 64 64 64 64 64 64 64 64 64 64 64 64 64 64 64 64 64 64 64 64 64 64 64 64 64 64 64 64 64 64 64 64 64 64 64 64 64 64 64 64 64 64 64 64 64 64 64 64 64 64 64 64 64 64 64 64 64 64 64 64 64 64 64 64 64 64 64 64 64 64 64 64 64 64 64 64 64 64 64 64 64 64 64 64 64 64 64 64 64 64 64 64 64 64 64 64 64 64 64 64 64 64 64 64 64
64 64 64 64 64 64 64 64 64 64 64 64 64 64 64 64 64 64 64 64 64 64 64 64 64 64 64 64 64 64 64 64 64 64 64 64 64 64 64 64 64 64 64 64 64 64 64 64 64 64 64 64 64 64 64 64 64 64 64 64 64 64 64 64 64 64 64 64 64 64 64 64 64 64 64 64 64 64 64 64 64 64 64 64 64 64 64 64 64 64 64 64 64 64 64 64 64 64 64 64 64 64 64 64 64 64 64 64 64 64 64 64 64 64 64 64 64 64 64 64 64 64 64 64 64 64 64 64 64 64 64 64 64 64 64 64 64 64 64 64 64 64 64 64 64 64 64 64 64 64 64 64 64 64 64 64 64 64 64 64
64 64 64 64 64 64 64 64 64 64 64 64 64 64 64 64 64 64 64 64 64 64 64 64 64 64 64 64 64 64 64 64 64 64 64 64 64 64 64 64 64 64 64 64 64 64 64 64 64 64 64 64 64 64 64 64 64 64 64 64 64 64 64 64 64 64 64 64 64 64 64 64 64 64 64 64 64 64 64 64 64 64 64 64 64 64 64 64 64 64 64 64 64 64 64 64 64 64 64 64 64 64 64 64 64 64 64 64 64 64 64 64 64 64 64 64 64 64 64 64 64 64 64 64 64 64 64 64 64 64 64 64 64 64 64 64 64 64 64 64 64 64 64 64 64 64 64 64 64 64 64 64 64 64 64 64 64 64 64 64
64 64 64 64 64 64 64 64 64 64 64 64 64 64 64 64 64 64 64 64 64 64 64 64 64 64 64 64 64 64 64 64 64 64 64 64 64 64 64 64 64 64 64 64 64 64 64 64 64 64 64 64 64 64 64 64 64 64 64 64 64 64 64 64 64 64 64 64 64 64 64 64 64 64 64 64 64 64 64 64 64 64 64 64 64 64 64 64 64 64 64 64 64 64 64 64 64 64 64 64 64 64 64 64 64 64 64 64 64 64 64 64 64 64 64 64 64 64 64 64 64 64 64 64 64 64 64 64 64 64 64 64 64 64 64 64 64 64 64 64 64 64 64 64 64 64 64 64 64 64 64 64 64 64 64 64 64 64 64 64
64 64 64 64 64 64 64 64 64 64 64 64 64 64 64 64 64 64 64 64 64 64 64 64 64 64 64 64 64 64 64 64 64 64 64 64 64 64 64 64 64 64 64 64 64 64 64 64 64 64 64 64 64 64 64 64 64 64 64 64 64 64 64 64 64 64 64 64 64 64 64 64 64 64 64 64 64 64 64 64 64 64 64 64 64 64 64 64 64 64 64 64 64 64 64 64 64 64 64 64 64 64 64 64 64 64 64 64 64 64 64 64 64 64 64 64 64 64 64 64 64 64 64 64 64 64 64 64 64 64 64 64 64 64 64 64 64 64 64 64 64 64 64 64 64 64 64 64 64 64 64 64 64 64 64 64 64 64 64 64
64 64 64 64 64 64 64 64 64 64 64 64 64 64 64 64 64 64 64 64 64 64 64 64 64 64 64 64 64 64 64 64 64 64 64 64 64 64 64 64 64 64 64 64 64 64 64 64 64 64 64 64 64 64 64 64 64 64 64 64 64 64 64 64 64 64 64 64 64 64 64 64 64 64 64 64 64 64 64 64 64 64 64 64 64 64 64 64 64 64 64 64 64 64 64 64 64 64 64 64 64 64 64 64 64 64 64 64 64 64 64 64 64 64 64 64 64 64 64 64 64 64 64 64 64 64 64 64 64 64 64 64 64 64 64 64 64 64 64 64 64 64 64 64 64 64 64 64 64 64 64 64 64 64 64 64 64 64 64 64
