P2
# scootbar snapshot `bar-rounded-1.5x-alpha`: the alpha plane at scale 1.5, radius 6 (9 device pixels), opacity 128
# Made by the test of that name in src/snapshots/tests.rs; to update it,
# SCOOTBAR_BLESS=1 cargo test -p scootbar snapshots (src/snapshots.rs).
240 30
255
0 0 0 0 0 39 82 111 126 128 128 128 128 128 128 128 128 128 128 128 128 128 128 128 128 128 128 128 128 128 128 128 128 128 128 128 128 128 128 128 128 128 128 128 128 128 128 128 128 128 128 128 128 128 128 128 128 128 128 128 128 128 128 128 128 128 128 128 128 128 128 128 128 128 128 128 128 128 128 128 128 128 128 128 128 128 128 128 128 128 128 128 128 128 128 128 128 128 128 128 128 128 128 128 128 128 128 128 128 128 128 128 128 128 128 128 128 128 128 128 128 128 128 128 128 128 128 128 128 128 128 128 128 128 128 128 128 128 128 128 128 128 128 128 128 128 128 128 128 128 128 128 128 128 128 128 128 128 128 128 128 128 128 128 128 128 128 128 128 128 128 128 128 128 128 128 128 128 128 128 128 128 128 128 128 128 128 128 128 128 128 128 128 128 128 128 128 128 128 128 128 128 128 128 128 128 128 128 128 128 128 128 128 128 128 128 128 128 128 128 128 128 128 128 128 128 128 128 128 128 128 126 111 82 39 0 0 0 0 0
0 0 0 26 96 128 128 128 128 128 128 128 128 128 128 128 128 128 128 128 128 128 128 128 128 128 128 128 128 128 128 128 128 128 128 128 128 128 128 128 128 128 128 128 128 128 128 128 128 128 128 128 128 128 128 128 128 128 128 128 128 128 128 128 128 128 128 128 128 128 128 128 128 128 128 128 128 128 128 128 128 128 128 128 128 128 128 128 128 128 128 128 128 128 128 128 128 128 128 128 128 128 128 128 128 128 128 128 128 128 128 128 128 128 128 128 128 128 128 128 128 128 128 128 128 128 128 128 128 128 128 128 128 128 128 128 128 128 128 128 128 128 128 128 128 128 128 128 128 128 128 128 128 128 128 128 128 128 128 128 128 128 128 128 128 128 128 128 128 128 128 128 128 128 128 128 128 128 128 128 128 128 128 128 128 128 128 128 128 128 128 128 128 128 128 128 128 128 128 128 128 128 128 128 128 128 128 128 128 128 128 128 128 128 128 128 128 128 128 128 128 128 128 128 128 128 128 128 128 128 128 128 128 128 128 96 26 0 0 0
0 0 39 126 128 128 128 128 128 128 128 128 128 128 128 128 128 128 128 128 128 128 128 128 128 128 128 128 128 128 128 128 128 128 128 128 128 128 128 128 128 128 128 128 128 128 128 128 128 128 128 128 128 128 128 128 128 128 128 128 128 128 128 128 128 128 128 128 128 128 128 128 128 128 128 128 128 128 128 128 128 128 128 128 128 128 128 128 128 128 128 128 128 128 128 128 128 128 128 128 128 128 128 128 128 128 128 128 128 128 128 128 128 128 128 128 128 128 128 128 128 128 128 128 128 128 128 128 128 128 128 128 128 128 128 128 128 128 128 128 128 128 128 128 128 128 128 128 128 128 128 128 128 128 128 128 128 128 128 128 128 128 128 128 128 128 128 128 128 128 128 128 128 128 128 128 128 128 128 128 128 128 128 128 128 128 128 128 128 128 128 128 128 128 128 128 128 128 128 128 128 128 128 128 128 128 128 128 128 128 128 128 128 128 128 128 128 128 128 128 128 128 128 128 128 128 128 128 128 128 128 128 128 128 128 128 126 39 0 0
0 26 126 128 128 128 128 128 128 128 128 128 128 128 128 128 128 128 128 128 128 128 128 128 128 128 128 128 128 128 128 128 128 128 128 128 128 128 128 128 128 128 128 128 128 128 128 128 128 128 128 128 128 128 128 128 128 128 128 128 128 128 128 128 128 128 128 128 128 128 128 128 128 128 128 128 128 128 128 128 128 128 128 128 128 128 128 128 128 128 128 128 128 128 128 128 128 128 128 128 128 128 128 128 128 128 128 128 128 128 128 128 128 128 128 128 128 128 128 128 128 128 128 128 128 128 128 128 128 128 128 128 128 128 128 128 128 128 128 128 128 128 128 128 128 128 128 128 128 128 128 128 128 128 128 128 128 128 128 128 128 128 128 128 128 128 128 128 128 128 128 128 128 128 128 128 128 128 128 128 128 128 128 128 128 128 128 128 128 128 128 128 128 128 128 128 128 128 128 128 128 128 128 128 128 128 128 128 128 128 128 128 128 128 128 128 128 128 128 128 128 128 128 128 128 128 128 128 128 128 128 128 128 128 128 128 128 126 26 0
0 96 128 128 128 128 128 128 128 128 128 128 128 128 128 128 128 128 128 128 128 128 128 128 128 128 128 128 128 128 128 128 128 128 128 128 128 128 128 128 128 128 128 128 128 128 128 128 128 128 128 128 128 128 128 128 128 128 128 128 128 128 128 128 128 128 128 128 128 128 128 128 128 128 128 128 128 128 128 128 128 128 128 128 128 128 128 128 128 128 128 128 128 128 128 128 128 128 128 128 128 128 128 128 128 128 128 128 128 128 128 128 128 128 128 128 128 128 128 128 128 128 128 128 128 128 128 128 128 128 128 128 128 128 128 128 128 128 128 128 128 128 128 128 128 128 128 128 128 128 128 128 128 128 128 128 128 128 128 128 128 128 128 128 128 128 128 128 128 128 128 128 128 128 128 128 128 128 128 128 128 128 128 128 128 128 128 128 128 128 128 128 128 128 128 128 128 128 128 128 128 128 128 128 128 128 128 128 128 128 128 128 128 128 128 128 128 128 128 128 128 128 128 128 128 128 128 128 128 128 128 128 128 128 128 128 128 128 96 0
39 128 128 128 128 128 128 128 128 128 128 128 128 128 128 128 128 128 128 128 128 128 128 128 128 128 128 128 128 128 128 128 128 128 128 128 128 128 128 128 128 128 128 128 128 128 128 128 128 128 128 128 128 128 128 128 128 128 128 128 128 128 128 128 128 128 128 128 128 128 128 128 128 128 128 128 128 128 128 128 128 128 128 128 128 128 128 128 128 128 128 128 128 128 128 128 128 128 128 128 128 128 128 128 128 128 128 128 128 128 128 128 128 128 128 128 128 128 128 128 128 128 128 128 128 128 128 128 128 128 128 128 128 128 128 128 128 128 128 128 128 128 128 128 128 128 128 128 128 128 128 128 128 128 128 128 128 128 128 128 128 128 128 128 128 128 128 128 128 128 128 128 128 128 128 128 128 128 128 128 128 128 128 128 128 128 128 128 128 128 128 128 128 128 128 128 128 128 128 128 128 128 128 128 128 128 128 128 128 128 128 128 128 128 128 128 128 128 128 128 128 128 128 128 128 128 128 128 128 128 128 128 128 128 128 128 128 128 128 39
82 128 128 128 128 128 128 128 128 128 128 128 128 128 128 128 128 128 128 128 128 128 128 199 217 217 217 163 128 128 128 128 128 128 128 128 128 128 128 128 128 128 128 128 128 128 128 128 199 217 217 217 163 128 128 128 128 128 128 128 128 128 128 128 128 128 128 128 128 128 128 128 128 128 128 128 128 128 128 128 128 128 128 128 128 128 128 128 128 128 128 128 128 128 128 128 128 128 128 199 217 217 217 163 128 128 128 128 128 128 128 128 128 128 128 128 128 128 128 128 128 128 208 217 217 217 217 217 217 217 172 128 128 128 128 128 128 128 128 128 128 128 128 128 128 128 128 128 128 199 217 217 217 163 128 128 128 128 128 128 128 128 128 128 128 128 128 128 128 128 128 128 128 128 199 217 217 217 163 128 128 128 128 128 128 128 128 199 217 217 217 163 128 128 128 128 128 128 128 128 128 128 128 128 128 128 128 128 128 128 128 128 199 217 217 217 163 128 128 128 128 128 128 128 128 199 217 217 217 163 128 128 128 128 128 128 128 128 128 82
111 128 128 128 128 128 128 128 128 128 128 128 128 128 128 128 128 128 128 128 128 128 128 230 255 255 255 179 128 128 128 128 128 128 128 128 128 128 128 128 128 128 128 128 128 128 128 128 230 255 255 255 179 128 128 128 128 128 128 128 128 128 128 128 128 128 128 128 128 128 128 128 128 128 128 128 128 128 128 128 128 128 128 128 128 128 128 128 128 128 128 128 128 128 128 128 128 128 128 230 255 255 255 179 128 128 128 128 128 128 128 128 128 128 128 128 128 128 128 128 128 128 243 255 255 255 255 255 255 255 192 128 128 128 128 128 128 128 128 128 128 128 128 128 128 128 128 128 128 230 255 255 255 179 128 128 128 128 128 128 128 128 128 128 128 128 128 128 128 128 128 128 128 128 230 255 255 255 179 128 128 128 128 128 128 128 128 230 255 255 255 179 128 128 128 128 128 128 128 128 128 128 128 128 128 128 128 128 128 128 128 128 230 255 255 255 179 128 128 128 128 128 128 128 128 230 255 255 255 179 128 128 128 128 128 128 128 128 128 111
126 128 128 128 128 128 128 128 128 128 128 128 128 128 174 204 166 128 128 128 128 128 128 169 179 179 179 194 204 166 128 128 128 128 128 128 128 128 128 128 128 128 128 128 128 128 128 128 169 179 179 179 194 204 166 128 128 128 197 204 143 128 128 128 174 204 166 128 128 128 128 128 128 128 128 128 128 128 128 128 128 128 128 128 128 128 128 128 128 128 128 128 128 128 128 128 128 197 204 184 179 179 179 194 204 166 128 128 128 128 128 128 128 128 128 128 128 128 128 128 128 128 243 255 255 255 255 255 255 255 192 128 128 128 128 128 128 128 128 128 128 128 128 128 128 128 128 197 204 184 179 179 179 194 204 166 128 128 128 128 128 128 128 128 128 128 128 128 128 128 128 128 197 204 184 179 179 179 194 204 166 128 128 128 128 197 204 184 179 179 179 194 204 166 128 128 128 128 128 128 128 128 128 128 128 128 128 128 128 128 197 204 184 179 179 179 194 204 166 128 128 128 128 197 204 184 179 179 179 194 204 166 128 128 128 128 128 128 128 126
128 128 128 128 128 128 128 128 128 128 128 128 128 128 204 255 192 128 128 128 128 128 128 128 128 128 128 204 255 192 128 128 128 128 128 128 180 198 152 128 128 128 128 128 128 128 128 128 128 128 128 128 204 255 192 128 128 128 243 255 153 128 128 128 204 255 192 128 128 128 128 128 128 128 128 128 128 128 128 128 128 128 128 128 128 128 128 128 128 128 128 128 128 128 128 128 128 243 255 153 128 128 128 204 255 192 128 128 128 128 128 128 128 128 128 128 128 128 128 128 128 128 243 255 255 255 255 255 255 255 192 128 128 128 128 128 128 128 128 128 128 128 128 128 128 128 128 243 255 153 128 128 128 204 255 192 128 128 128 128 128 128 128 128 128 128 128 128 128 128 128 128 243 255 153 128 128 128 204 255 192 128 128 128 128 243 255 153 128 128 128 204 255 192 128 128 128 128 128 128 128 128 128 128 128 128 128 128 128 128 243 255 153 128 128 128 204 255 192 128 128 128 128 243 255 153 128 128 128 204 255 192 128 128 128 128 128 128 128 128
128 128 128 128 128 128 128 128 128 128 128 128 128 128 204 255 192 128 128 128 128 128 128 128 128 128 128 204 255 192 128 128 128 128 128 128 223 255 172 128 128 128 128 128 128 128 128 128 128 128 128 128 204 255 192 128 128 128 243 255 153 128 128 128 204 255 192 128 128 128 128 128 128 128 128 128 128 128 128 128 128 128 128 128 128 128 128 128 128 128 128 128 128 128 128 128 128 243 255 153 128 128 128 204 255 192 128 128 128 128 128 128 128 128 128 128 128 128 128 128 128 128 243 255 255 255 255 255 255 255 192 128 128 128 128 128 128 128 128 128 128 128 128 128 128 128 128 243 255 153 128 128 128 204 255 192 128 128 128 128 128 128 128 128 128 128 128 128 128 128 128 128 243 255 153 128 128 128 204 255 192 128 128 128 128 243 255 153 128 128 128 204 255 192 128 128 128 128 128 128 128 128 128 128 128 128 128 128 128 128 243 255 153 128 128 128 204 255 192 128 128 128 128 243 255 153 128 128 128 204 255 192 128 128 128 128 128 128 128 128
128 128 128 128 128 128 128 128 128 128 128 128 128 128 204 255 192 128 128 128 128 128 128 128 128 128 128 204 255 192 128 128 128 128 128 128 180 198 152 128 128 128 128 128 128 128 128 128 128 128 128 128 204 255 192 128 128 128 243 255 153 128 128 128 204 255 192 128 128 128 128 128 128 128 128 128 128 128 128 128 128 128 128 128 128 128 128 128 128 128 128 128 128 128 128 128 128 243 255 153 128 128 128 204 255 192 128 128 128 128 128 128 128 128 128 128 128 128 128 128 128 128 243 255 255 255 255 255 255 255 192 128 128 128 128 128 128 128 128 128 128 128 128 128 128 128 128 243 255 153 128 128 128 204 255 192 128 128 128 128 128 128 128 128 128 128 128 128 128 128 128 128 243 255 153 128 128 128 204 255 192 128 128 128 128 243 255 153 128 128 128 204 255 192 128 128 128 128 128 128 128 128 128 128 128 128 128 128 128 128 243 255 153 128 128 128 204 255 192 128 128 128 128 243 255 153 128 128 128 204 255 192 128 128 128 128 128 128 128 128
128 128 128 128 128 128 128 128 128 128 128 128 128 128 174 204 166 128 128 128 128 128 128 169 179 179 179 194 204 166 128 128 128 128 128 128 128 128 128 128 128 128 128 128 128 128 128 128 169 179 179 179 194 204 166 128 128 128 197 204 184 179 179 179 194 204 166 128 128 128 128 128 128 128 128 128 128 128 128 128 128 128 128 128 128 128 128 128 128 128 128 128 128 128 128 128 128 197 204 184 179 179 179 194 204 166 128 128 128 128 128 128 128 128 128 128 128 128 128 128 128 128 243 255 255 255 255 255 255 255 192 128 128 128 128 128 128 128 128 128 128 128 128 128 128 128 128 197 204 184 179 179 179 194 204 166 128 128 128 128 128 128 128 128 128 128 128 128 128 128 128 128 197 204 143 128 128 128 174 204 166 128 128 128 128 197 204 184 179 179 179 194 204 166 128 128 128 128 128 128 128 128 128 128 128 128 128 128 128 128 197 204 184 179 179 179 194 204 166 128 128 128 128 197 204 143 128 128 128 174 204 166 128 128 128 128 128 128 128 128
128 128 128 128 128 128 128 128 128 128 128 128 128 128 128 128 128 128 128 128 128 128 128 230 255 255 255 179 128 128 128 128 128 128 128 128 128 128 128 128 128 128 128 128 128 128 128 128 230 255 255 255 179 128 128 128 128 128 128 128 230 255 255 255 179 128 128 128 128 128 128 128 128 128 128 128 128 128 128 128 128 128 128 128 128 128 128 128 128 128 128 128 128 128 128 128 128 128 128 230 255 255 255 179 128 128 128 128 128 128 128 128 128 128 128 128 128 128 128 128 128 128 243 255 255 255 255 255 255 255 192 128 128 128 128 128 128 128 128 128 128 128 128 128 128 128 128 128 128 230 255 255 255 179 128 128 128 128 128 128 128 128 128 128 128 128 128 128 128 128 128 128 128 128 128 128 128 128 128 128 128 128 128 128 128 128 128 230 255 255 255 179 128 128 128 128 128 128 128 128 128 128 128 128 128 128 128 128 128 128 128 128 230 255 255 255 179 128 128 128 128 128 128 128 128 128 128 128 128 128 128 128 128 128 128 128 128 128 128 128
128 128 128 128 128 128 128 128 128 128 128 128 128 128 151 166 147 128 128 128 128 162 166 207 217 217 217 163 128 128 128 128 128 128 128 128 128 128 128 128 128 128 128 128 128 128 128 128 199 217 217 217 186 166 147 128 128 128 128 128 199 217 217 217 186 166 147 128 128 128 128 128 128 128 128 128 128 128 128 128 128 128 128 128 128 128 128 128 128 128 128 128 128 128 128 128 128 162 166 207 217 217 217 186 166 147 128 128 128 128 128 128 128 128 128 128 128 128 128 128 128 128 243 255 255 255 255 255 255 255 192 128 128 128 128 128 128 128 128 128 128 128 128 128 128 128 128 162 166 207 217 217 217 186 166 147 128 128 128 128 128 128 128 128 128 128 128 128 128 128 128 128 162 166 135 128 128 128 151 166 147 128 128 128 128 128 128 199 217 217 217 186 166 147 128 128 128 128 128 128 128 128 128 128 128 128 128 128 128 128 162 166 207 217 217 217 163 128 128 128 128 128 128 162 166 135 128 128 128 151 166 147 128 128 128 128 128 128 128 128
128 128 128 128 128 128 128 128 128 128 128 128 128 128 204 255 192 128 128 128 128 243 255 153 128 128 128 128 128 128 128 128 128 128 128 128 152 160 139 128 128 128 128 128 128 128 128 128 128 128 128 128 204 255 192 128 128 128 128 128 128 128 128 128 204 255 191 128 128 128 128 128 128 128 128 128 128 128 128 128 128 128 128 128 128 128 128 128 128 128 128 128 128 128 128 128 128 243 255 153 128 128 128 204 255 191 128 128 128 128 128 128 128 128 128 128 128 128 128 128 128 128 243 255 255 255 255 255 255 255 192 128 128 128 128 128 128 128 128 128 128 128 128 128 128 128 128 243 255 153 128 128 128 204 255 191 128 128 128 128 128 128 128 128 128 128 128 128 128 128 128 128 243 255 153 128 128 128 204 255 192 128 128 128 128 128 128 128 128 128 128 204 255 192 128 128 128 128 128 128 128 128 128 128 128 128 128 128 128 128 243 255 153 128 128 128 128 128 128 128 128 128 128 243 255 153 128 128 128 204 255 192 128 128 128 128 128 128 128 128
128 128 128 128 128 128 128 128 128 128 128 128 128 128 204 255 192 128 128 128 128 243 255 153 128 128 128 128 128 128 128 128 128 128 128 128 223 255 172 128 128 128 128 128 128 128 128 128 128 128 128 128 204 255 192 128 128 128 128 128 128 128 128 128 204 255 191 128 128 128 128 128 128 128 128 128 128 128 128 128 128 128 128 128 128 128 128 128 128 128 128 128 128 128 128 128 128 243 255 153 128 128 128 204 255 191 128 128 128 128 128 128 128 128 128 128 128 128 128 128 128 128 243 255 255 255 255 255 255 255 192 128 128 128 128 128 128 128 128 128 128 128 128 128 128 128 128 243 255 153 128 128 128 204 255 191 128 128 128 128 128 128 128 128 128 128 128 128 128 128 128 128 243 255 153 128 128 128 204 255 192 128 128 128 128 128 128 128 128 128 128 204 255 192 128 128 128 128 128 128 128 128 128 128 128 128 128 128 128 128 243 255 153 128 128 128 128 128 128 128 128 128 128 243 255 153 128 128 128 204 255 192 128 128 128 128 128 128 128 128
128 128 128 128 128 128 128 128 128 128 128 128 128 128 204 255 192 128 128 128 128 243 255 153 128 128 128 128 128 128 128 128 128 128 128 128 209 236 166 128 128 128 128 128 128 128 128 128 128 128 128 128 204 255 192 128 128 128 128 128 128 128 128 128 204 255 191 128 128 128 128 128 128 128 128 128 128 128 128 128 128 128 128 128 128 128 128 128 128 128 128 128 128 128 128 128 128 243 255 153 128 128 128 204 255 191 128 128 128 128 128 128 128 128 128 128 128 128 128 128 128 128 243 255 255 255 255 255 255 255 192 128 128 128 128 128 128 128 128 128 128 128 128 128 128 128 128 243 255 153 128 128 128 204 255 191 128 128 128 128 128 128 128 128 128 128 128 128 128 128 128 128 243 255 153 128 128 128 204 255 192 128 128 128 128 128 128 128 128 128 128 204 255 192 128 128 128 128 128 128 128 128 128 128 128 128 128 128 128 128 243 255 153 128 128 128 128 128 128 128 128 128 128 243 255 153 128 128 128 204 255 192 128 128 128 128 128 128 128 128
128 128 128 128 128 128 128 128 128 128 128 128 128 128 197 242 185 128 128 128 128 231 242 161 141 141 141 133 128 128 128 128 128 128 128 128 128 128 128 128 128 128 128 128 128 128 128 128 138 141 141 141 202 242 185 128 128 128 128 128 128 128 128 128 197 242 185 128 128 128 128 128 128 128 128 128 128 128 128 128 128 128 128 128 128 128 128 128 128 128 128 128 128 128 128 128 128 231 242 151 128 128 128 197 242 185 128 128 128 128 128 128 128 128 128 128 128 128 128 128 128 128 243 255 255 255 255 255 255 255 192 128 128 128 128 128 128 128 128 128 128 128 128 128 128 128 128 231 242 161 141 141 141 202 242 185 128 128 128 128 128 128 128 128 128 128 128 128 128 128 128 128 231 242 161 141 141 141 202 242 185 128 128 128 128 128 128 138 141 141 141 202 242 185 128 128 128 128 128 128 128 128 128 128 128 128 128 128 128 128 231 242 151 128 128 128 128 128 128 128 128 128 128 231 242 151 128 128 128 197 242 185 128 128 128 128 128 128 128 128
128 128 128 128 128 128 128 128 128 128 128 128 128 128 128 128 128 128 128 128 128 128 128 230 255 255 255 179 128 128 128 128 128 128 128 128 128 128 128 128 128 128 128 128 128 128 128 128 230 255 255 255 179 128 128 128 128 128 128 128 128 128 128 128 128 128 128 128 128 128 128 128 128 128 128 128 128 128 128 128 128 128 128 128 128 128 128 128 128 128 128 128 128 128 128 128 128 128 128 128 128 128 128 128 128 128 128 128 128 128 128 128 128 128 128 128 128 128 128 128 128 128 243 255 255 255 255 255 255 255 192 128 128 128 128 128 128 128 128 128 128 128 128 128 128 128 128 128 128 230 255 255 255 179 128 128 128 128 128 128 128 128 128 128 128 128 128 128 128 128 128 128 128 128 230 255 255 255 179 128 128 128 128 128 128 128 128 230 255 255 255 179 128 128 128 128 128 128 128 128 128 128 128 128 128 128 128 128 128 128 128 128 128 128 128 128 128 128 128 128 128 128 128 128 128 128 128 128 128 128 128 128 128 128 128 128 128 128 128 128
128 128 128 128 128 128 128 128 128 128 128 128 128 128 128 128 128 128 128 128 128 128 128 230 255 255 255 179 128 128 128 128 128 128 128 128 128 128 128 128 128 128 128 128 128 128 128 128 230 255 255 255 179 128 128 128 128 128 128 128 128 128 128 128 128 128 128 128 128 128 128 128 128 128 128 128 128 128 128 128 128 128 128 128 128 128 128 128 128 128 128 128 128 128 128 128 128 128 128 128 128 128 128 128 128 128 128 128 128 128 128 128 128 128 128 128 128 128 128 128 128 128 243 255 255 255 255 255 255 255 192 128 128 128 128 128 128 128 128 128 128 128 128 128 128 128 128 128 128 230 255 255 255 179 128 128 128 128 128 128 128 128 128 128 128 128 128 128 128 128 128 128 128 128 230 255 255 255 179 128 128 128 128 128 128 128 128 230 255 255 255 179 128 128 128 128 128 128 128 128 128 128 128 128 128 128 128 128 128 128 128 128 128 128 128 128 128 128 128 128 128 128 128 128 128 128 128 128 128 128 128 128 128 128 128 128 128 128 128 128
126 128 128 128 128 128 128 128 128 128 128 128 128 128 128 128 128 128 128 128 128 128 128 128 128 128 128 128 128 128 128 128 128 128 128 128 128 128 128 128 128 128 128 128 128 128 128 128 128 128 128 128 128 128 128 128 128 128 128 128 128 128 128 128 128 128 128 128 128 128 128 128 128 128 128 128 128 128 128 128 128 128 128 128 128 128 128 128 128 128 128 128 128 128 128 128 128 128 128 128 128 128 128 128 128 128 128 128 128 128 128 128 128 128 128 128 128 128 128 128 128 128 128 128 128 128 128 128 128 128 128 128 128 128 128 128 128 128 128 128 128 128 128 128 128 128 128 128 128 128 128 128 128 128 128 128 128 128 128 128 128 128 128 128 128 128 128 128 128 128 128 128 128 128 128 128 128 128 128 128 128 128 128 128 128 128 128 128 128 128 128 128 128 128 128 128 128 128 128 128 128 128 128 128 128 128 128 128 128 128 128 128 128 128 128 128 128 128 128 128 128 128 128 128 128 128 128 128 128 128 128 128 128 128 128 128 128 128 128 126
111 128 128 128 128 128 128 128 128 128 128 128 128 128 128 128 128 128 128 128 128 128 128 128 128 128 128 128 128 128 128 128 128 128 128 128 128 128 128 128 128 128 128 128 128 128 128 128 128 128 128 128 128 128 128 128 128 128 128 128 128 128 128 128 128 128 128 128 128 128 128 128 128 128 128 128 128 128 128 128 128 128 128 128 128 128 128 128 128 128 128 128 128 128 128 128 128 128 128 128 128 128 128 128 128 128 128 128 128 128 128 128 128 128 128 128 128 128 128 128 128 128 128 128 128 128 128 128 128 128 128 128 128 128 128 128 128 128 128 128 128 128 128 128 128 128 128 128 128 128 128 128 128 128 128 128 128 128 128 128 128 128 128 128 128 128 128 128 128 128 128 128 128 128 128 128 128 128 128 128 128 128 128 128 128 128 128 128 128 128 128 128 128 128 128 128 128 128 128 128 128 128 128 128 128 128 128 128 128 128 128 128 128 128 128 128 128 128 128 128 128 128 128 128 128 128 128 128 128 128 128 128 128 128 128 128 128 128 128 111
82 128 128 128 128 128 128 128 128 128 128 128 128 128 128 128 128 128 128 128 128 128 128 128 128 128 128 128 128 128 128 128 128 128 128 128 128 128 128 128 128 128 128 128 128 128 128 128 128 128 128 128 128 128 128 128 128 128 128 128 128 128 128 128 128 128 128 128 128 128 128 128 128 128 128 128 128 128 128 128 128 128 128 128 128 128 128 128 128 128 128 128 128 128 128 128 128 128 128 128 128 128 128 128 128 128 128 128 128 128 128 128 128 128 128 128 128 128 128 128 128 128 128 128 128 128 128 128 128 128 128 128 128 128 128 128 128 128 128 128 128 128 128 128 128 128 128 128 128 128 128 128 128 128 128 128 128 128 128 128 128 128 128 128 128 128 128 128 128 128 128 128 128 128 128 128 128 128 128 128 128 128 128 128 128 128 128 128 128 128 128 128 128 128 128 128 128 128 128 128 128 128 128 128 128 128 128 128 128 128 128 128 128 128 128 128 128 128 128 128 128 128 128 128 128 128 128 128 128 128 128 128 128 128 128 128 128 128 128 82
39 128 128 128 128 128 128 128 128 128 128 128 128 128 128 128 128 128 128 128 128 128 128 128 128 128 128 128 128 128 128 128 128 128 128 128 128 128 128 128 128 128 128 128 128 128 128 128 128 128 128 128 128 128 128 128 128 128 128 128 128 128 128 128 128 128 128 128 128 128 128 128 128 128 128 128 128 128 128 128 128 128 128 128 128 128 128 128 128 128 128 128 128 128 128 128 128 128 128 128 128 128 128 128 128 128 128 128 128 128 128 128 128 128 128 128 128 128 128 128 128 128 128 128 128 128 128 128 128 128 128 128 128 128 128 128 128 128 128 128 128 128 128 128 128 128 128 128 128 128 128 128 128 128 128 128 128 128 128 128 128 128 128 128 128 128 128 128 128 128 128 128 128 128 128 128 128 128 128 128 128 128 128 128 128 128 128 128 128 128 128 128 128 128 128 128 128 128 128 128 128 128 128 128 128 128 128 128 128 128 128 128 128 128 128 128 128 128 128 128 128 128 128 128 128 128 128 128 128 128 128 128 128 128 128 128 128 128 128 39
0 96 128 128 128 128 128 128 128 128 128 128 128 128 128 128 128 128 128 128 128 128 128 128 128 128 128 128 128 128 128 128 128 128 128 128 128 128 128 128 128 128 128 128 128 128 128 128 128 128 128 128 128 128 128 128 128 128 128 128 128 128 128 128 128 128 128 128 128 128 128 128 128 128 128 128 128 128 128 128 128 128 128 128 128 128 128 128 128 128 128 128 128 128 128 128 128 128 128 128 128 128 128 128 128 128 128 128 128 128 128 128 128 128 128 128 128 128 128 128 128 128 128 128 128 128 128 128 128 128 128 128 128 128 128 128 128 128 128 128 128 128 128 128 128 128 128 128 128 128 128 128 128 128 128 128 128 128 128 128 128 128 128 128 128 128 128 128 128 128 128 128 128 128 128 128 128 128 128 128 128 128 128 128 128 128 128 128 128 128 128 128 128 128 128 128 128 128 128 128 128 128 128 128 128 128 128 128 128 128 128 128 128 128 128 128 128 128 128 128 128 128 128 128 128 128 128 128 128 128 128 128 128 128 128 128 128 128 96 0
0 26 126 128 128 128 128 128 128 128 128 128 128 128 128 128 128 128 128 128 128 128 128 128 128 128 128 128 128 128 128 128 128 128 128 128 128 128 128 128 128 128 128 128 128 128 128 128 128 128 128 128 128 128 128 128 128 128 128 128 128 128 128 128 128 128 128 128 128 128 128 128 128 128 128 128 128 128 128 128 128 128 128 128 128 128 128 128 128 128 128 128 128 128 128 128 128 128 128 128 128 128 128 128 128 128 128 128 128 128 128 128 128 128 128 128 128 128 128 128 128 128 128 128 128 128 128 128 128 128 128 128 128 128 128 128 128 128 128 128 128 128 128 128 128 128 128 128 128 128 128 128 128 128 128 128 128 128 128 128 128 128 128 128 128 128 128 128 128 128 128 128 128 128 128 128 128 128 128 128 128 128 128 128 128 128 128 128 128 128 128 128 128 128 128 128 128 128 128 128 128 128 128 128 128 128 128 128 128 128 128 128 128 128 128 128 128 128 128 128 128 128 128 128 128 128 128 128 128 128 128 128 128 128 128 128 128 126 26 0
0 0 39 126 128 128 128 128 128 128 128 128 128 128 128 128 128 128 128 128 128 128 128 128 128 128 128 128 128 128 128 128 128 128 128 128 128 128 128 128 128 128 128 128 128 128 128 128 128 128 128 128 128 128 128 128 128 128 128 128 128 128 128 128 128 128 128 128 128 128 128 128 128 128 128 128 128 128 128 128 128 128 128 128 128 128 128 128 128 128 128 128 128 128 128 128 128 128 128 128 128 128 128 128 128 128 128 128 128 128 128 128 128 128 128 128 128 128 128 128 128 128 128 128 128 128 128 128 128 128 128 128 128 128 128 128 128 128 128 128 128 128 128 128 128 128 128 128 128 128 128 128 128 128 128 128 128 128 128 128 128 128 128 128 128 128 128 128 128 128 128 128 128 128 128 128 128 128 128 128 128 128 128 128 128 128 128 128 128 128 128 128 128 128 128 128 128 128 128 128 128 128 128 128 128 128 128 128 128 128 128 128 128 128 128 128 128 128 128 128 128 128 128 128 128 128 128 128 128 128 128 128 128 128 128 128 126 39 0 0
0 0 0 26 96 128 128 128 128 128 128 128 128 128 128 128 128 128 128 128 128 128 128 128 128 128 128 128 128 128 128 128 128 128 128 128 128 128 128 128 128 128 128 128 128 128 128 128 128 128 128 128 128 128 128 128 128 128 128 128 128 128 128 128 128 128 128 128 128 128 128 128 128 128 128 128 128 128 128 128 128 128 128 128 128 128 128 128 128 128 128 128 128 128 128 128 128 128 128 128 128 128 128 128 128 128 128 128 128 128 128 128 128 128 128 128 128 128 128 128 128 128 128 128 128 128 128 128 128 128 128 128 128 128 128 128 128 128 128 128 128 128 128 128 128 128 128 128 128 128 128 128 128 128 128 128 128 128 128 128 128 128 128 128 128 128 128 128 128 128 128 128 128 128 128 128 128 128 128 128 128 128 128 128 128 128 128 128 128 128 128 128 128 128 128 128 128 128 128 128 128 128 128 128 128 128 128 128 128 128 128 128 128 128 128 128 128 128 128 128 128 128 128 128 128 128 128 128 128 128 128 128 128 128 128 96 26 0 0 0
0 0 0 0 0 39 82 111 126 128 128 128 128 128 128 128 128 128 128 128 128 128 128 128 128 128 128 128 128 128 128 128 128 128 128 128 128 128 128 128 128 128 128 128 128 128 128 128 128 128 128 128 128 128 128 128 128 128 128 128 128 128 128 128 128 128 128 128 128 128 128 128 128 128 128 128 128 128 128 128 128 128 128 128 128 128 128 128 128 128 128 128 128 128 128 128 128 128 128 128 128 128 128 128 128 128 128 128 128 128 128 128 128 128 128 128 128 128 128 128 128 128 128 128 128 128 128 128 128 128 128 128 128 128 128 128 128 128 128 128 128 128 128 128 128 128 128 128 128 128 128 128 128 128 128 128 128 128 128 128 128 128 128 128 128 128 128 128 128 128 128 128 128 128 128 128 128 128 128 128 128 128 128 128 128 128 128 128 128 128 128 128 128 128 128 128 128 128 128 128 128 128 128 128 128 128 128 128 128 128 128 128 128 128 128 128 128 128 128 128 128 128 128 128 128 128 128 128 128 128 128 126 111 82 39 0 0 0 0 0
