P2
# scootbar snapshot `bar-hover-1.5x`: the hovered bar of bar-hover-1x at scale 1.5 (fractional, 240x30 device pixels)
# Made by the test of that name in src/snapshots/tests.rs; to update it,
# SCOOTBAR_BLESS=1 cargo test -p scootbar snapshots (src/snapshots.rs).
240 30
255
0 0 0 0 0 0 0 0 0 0 0 0 0 0 0 0 0 0 0 0 0 0 0 0 0 0 0 0 0 0 0 0 0 0 0 0 0 0 0 0 0 0 0 0 0 0 0 0 0 0 0 0 0 0 0 0 0 0 0 0 0 0 0 0 0 0 0 0 0 0 0 0 0 0 0 0 0 0 0 0 0 0 0 0 0 0 0 0 0 0 0 0 0 0 0 0 0 0 0 0 0 0 0 0 0 0 0 0 0 0 0 0 0 0 0 0 0 0 0 0 0 0 0 0 0 0 0 0 0 0 0 0 0 0 0 0 0 0 0 0 0 0 0 0 0 0 0 0 0 0 0 0 0 0 0 0 0 0 0 0 0 0 0 0 0 0 0 0 0 0 0 0 0 0 0 0 0 0 0 0 0 0 0 0 0 0 0 0 0 0 0 0 0 0 0 0 0 0 0 0 0 0 0 0 0 0 0 0 0 0 0 0 0 0 0 0 0 0 0 0 0 0 0 0 0 0 0 0 0 0 0 0 0 0 0 0 0 0 0 0
0 0 0 0 0 0 0 0 0 0 0 0 0 0 0 0 0 0 0 0 0 0 0 0 0 0 0 0 0 0 0 0 0 0 0 0 0 0 0 0 0 0 0 0 0 0 0 0 0 0 0 0 0 0 0 0 0 0 0 0 0 0 0 0 0 0 0 0 0 0 0 0 0 0 0 0 0 0 0 0 0 0 0 0 0 0 0 0 0 0 0 0 0 0 0 0 0 0 0 0 0 0 0 0 0 0 0 0 0 0 0 0 0 0 0 0 0 0 0 0 0 0 0 0 0 0 0 0 0 0 0 0 0 0 0 0 0 0 0 0 0 0 0 0 0 0 0 0 0 0 0 0 0 0 0 0 0 0 0 0 0 0 0 0 0 0 0 0 0 0 0 0 0 0 0 0 0 0 0 0 0 0 0 0 0 0 0 0 0 0 0 0 0 0 0 0 0 0 0 0 0 0 0 0 0 0 0 0 0 0 0 0 0 0 0 0 0 0 0 0 0 0 0 0 0 0 0 0 0 0 0 0 0 0 0 0 0 0 0 0
0 0 0 0 0 0 0 0 0 0 0 0 0 0 0 0 0 0 0 0 0 0 0 0 0 0 0 0 0 0 0 0 0 0 0 0 0 0 0 0 0 0 0 0 0 0 0 0 0 0 0 0 0 0 0 0 0 0 0 0 0 0 0 0 0 0 0 0 0 0 0 0 0 0 0 0 0 0 0 0 0 0 0 0 0 0 0 0 0 0 0 0 0 0 0 0 0 0 0 0 0 0 0 0 0 0 0 0 0 0 0 0 0 0 0 0 0 0 0 0 0 0 0 0 0 0 0 0 0 0 0 0 0 0 0 0 0 0 0 0 0 0 0 0 0 0 0 0 0 0 0 0 0 0 0 0 0 0 0 0 0 0 0 0 0 0 0 0 0 0 0 0 0 0 0 0 0 0 0 0 0 0 0 0 0 0 0 0 0 0 0 0 0 0 0 0 0 0 0 0 0 0 0 0 0 0 0 0 0 0 0 0 0 0 0 0 0 0 0 0 0 0 0 0 0 0 0 0 0 0 0 0 0 0 0 0 0 0 0 0
0 0 0 0 0 0 0 0 0 0 0 0 0 0 0 0 0 0 0 0 0 0 0 0 0 0 0 0 0 0 0 0 0 0 0 0 0 0 0 0 0 0 0 0 0 0 0 0 0 0 0 0 0 0 0 0 0 0 0 0 0 0 0 0 0 0 0 0 0 0 0 0 0 0 0 0 0 0 0 0 0 0 0 0 0 0 0 0 0 0 0 0 0 0 0 0 0 0 0 0 0 0 0 0 0 0 0 0 0 0 0 0 0 0 0 0 0 0 0 0 0 0 0 0 0 0 0 0 0 0 0 0 0 0 0 0 0 0 0 0 0 0 0 0 0 0 0 0 0 0 0 0 0 0 0 0 0 0 0 0 0 0 0 0 0 0 0 0 0 0 0 0 0 0 0 0 0 0 0 0 0 0 0 0 0 0 0 0 0 0 0 0 0 0 0 0 0 0 0 0 0 0 0 0 0 0 0 0 0 0 0 0 0 0 0 0 0 0 0 0 0 0 0 0 0 0 0 0 0 0 0 0 0 0 0 0 0 0 0 0
0 0 0 0 0 0 0 0 0 0 0 0 0 0 0 0 0 0 0 0 0 0 0 0 0 0 0 0 0 0 0 0 0 0 0 0 0 0 0 0 0 0 0 0 0 0 0 0 0 0 0 0 0 0 0 0 0 0 0 0 0 0 0 0 0 0 0 0 0 0 0 0 0 0 0 0 0 0 0 0 0 0 0 0 0 0 0 0 0 0 0 0 0 0 0 0 0 0 0 0 0 0 0 0 0 0 0 0 0 0 0 0 0 0 0 0 0 0 0 0 0 0 0 0 0 0 0 0 0 0 0 0 0 0 0 0 0 0 0 0 0 0 0 0 0 0 0 0 0 0 0 0 0 0 0 0 0 0 0 0 0 0 0 0 0 0 0 0 0 0 0 0 0 0 0 0 0 0 0 0 0 0 0 0 0 0 0 0 0 0 0 0 0 0 0 0 0 0 0 0 0 0 0 0 0 0 0 0 0 0 0 0 0 0 0 0 0 0 0 0 0 0 0 0 0 0 0 0 0 0 0 0 0 0 0 0 0 0 0 0
0 0 0 0 0 0 0 0 0 0 0 0 0 0 0 0 0 0 0 0 0 0 0 0 0 0 0 0 0 0 0 0 0 0 0 0 0 0 0 0 0 0 0 0 0 0 0 0 0 0 0 0 0 0 0 0 0 0 0 0 0 0 0 0 0 0 0 0 0 0 0 0 0 0 0 0 0 0 0 0 0 0 0 0 0 0 0 0 0 0 0 0 0 0 0 0 0 0 0 0 0 0 0 0 0 0 0 0 0 0 0 0 0 0 0 0 0 0 0 0 0 0 0 0 0 0 0 0 0 0 0 0 0 0 0 0 0 0 0 0 0 0 0 0 0 0 0 0 0 0 0 0 0 0 0 0 0 0 0 0 0 0 0 0 0 0 0 0 0 0 0 0 0 0 0 0 0 0 0 0 0 0 0 0 0 0 0 0 0 0 0 0 0 0 0 0 0 0 0 0 0 0 0 0 0 0 0 0 0 0 0 0 0 0 0 0 0 0 0 0 0 0 0 0 0 0 0 0 0 0 0 0 0 0 0 0 0 0 0 0
0 0 0 0 0 0 0 0 0 0 0 0 0 0 0 0 0 0 0 0 0 0 0 143 178 178 178 71 0 0 0 0 0 0 0 0 0 0 0 0 0 0 0 0 0 0 0 0 143 178 178 178 71 0 0 0 0 0 0 0 0 0 0 0 0 0 0 0 0 0 0 0 0 0 0 0 0 0 0 0 0 0 0 0 0 0 0 0 0 0 0 0 0 0 0 0 0 0 0 72 89 89 89 36 0 0 0 0 0 0 0 0 0 0 0 0 0 0 0 0 0 0 81 89 89 89 89 89 89 89 45 0 0 0 0 0 0 0 0 0 0 0 0 0 0 0 0 0 0 126 156 156 156 62 0 0 0 0 0 0 0 0 0 0 0 0 0 0 0 0 0 0 0 0 126 156 156 156 62 0 0 0 0 0 0 0 0 126 156 156 156 62 0 0 0 0 0 0 0 0 0 0 0 0 0 0 0 0 0 0 0 0 126 156 156 156 62 0 0 0 0 0 0 0 0 126 156 156 156 62 0 0 0 0 0 0 0 0 0 0
0 0 0 0 0 0 0 0 0 0 0 0 0 0 0 0 0 0 0 0 0 0 0 204 255 255 255 102 0 0 0 0 0 0 0 0 0 0 0 0 0 0 0 0 0 0 0 0 204 255 255 255 102 0 0 0 0 0 0 0 0 0 0 0 0 0 0 0 0 0 0 0 0 0 0 0 0 0 0 0 0 0 0 0 0 0 0 0 0 0 0 0 0 0 0 0 0 0 0 102 128 128 128 51 0 0 0 0 0 0 0 0 0 0 0 0 0 0 0 0 0 0 115 128 128 128 128 128 128 128 64 0 0 0 0 0 0 0 0 0 0 0 0 0 0 0 0 0 0 179 224 224 224 90 0 0 0 0 0 0 0 0 0 0 0 0 0 0 0 0 0 0 0 0 179 224 224 224 90 0 0 0 0 0 0 0 0 179 224 224 224 90 0 0 0 0 0 0 0 0 0 0 0 0 0 0 0 0 0 0 0 0 179 224 224 224 90 0 0 0 0 0 0 0 0 179 224 224 224 90 0 0 0 0 0 0 0 0 0 0
0 0 0 0 0 0 0 0 0 0 0 0 0 0 92 153 76 0 0 0 0 0 0 82 102 102 102 133 153 76 0 0 0 0 0 0 0 0 0 0 0 0 0 0 0 0 0 0 82 102 102 102 133 153 76 0 0 0 138 153 31 0 0 0 92 153 76 0 0 0 0 0 0 0 0 0 0 0 0 0 0 0 0 0 0 0 0 0 0 0 0 0 0 0 0 0 0 69 77 56 51 51 51 67 77 38 0 0 0 0 0 0 0 0 0 0 0 0 0 0 0 0 115 128 128 128 128 128 128 128 64 0 0 0 0 0 0 0 0 0 0 0 0 0 0 0 0 121 134 98 90 90 90 117 134 67 0 0 0 0 0 0 0 0 0 0 0 0 0 0 0 0 121 134 98 90 90 90 117 134 67 0 0 0 0 121 134 98 90 90 90 117 134 67 0 0 0 0 0 0 0 0 0 0 0 0 0 0 0 0 121 134 98 90 90 90 117 134 67 0 0 0 0 121 134 98 90 90 90 117 134 67 0 0 0 0 0 0 0 0
0 0 0 0 0 0 0 0 0 0 0 0 0 0 153 255 128 0 0 0 0 0 0 0 0 0 0 153 255 128 0 0 0 0 0 0 105 140 49 0 0 0 0 0 0 0 0 0 0 0 0 0 153 255 128 0 0 0 230 255 51 0 0 0 153 255 128 0 0 0 0 0 0 0 0 0 0 0 0 0 0 0 0 0 0 0 0 0 0 0 0 0 0 0 0 0 0 115 128 26 0 0 0 77 128 64 0 0 0 0 0 0 0 0 0 0 0 0 0 0 0 0 115 128 128 128 128 128 128 128 64 0 0 0 0 0 0 0 0 0 0 0 0 0 0 0 0 202 224 45 0 0 0 134 224 112 0 0 0 0 0 0 0 0 0 0 0 0 0 0 0 0 202 224 45 0 0 0 134 224 112 0 0 0 0 202 224 45 0 0 0 134 224 112 0 0 0 0 0 0 0 0 0 0 0 0 0 0 0 0 202 224 45 0 0 0 134 224 112 0 0 0 0 202 224 45 0 0 0 134 224 112 0 0 0 0 0 0 0 0
0 0 0 0 0 0 0 0 0 0 0 0 0 0 153 255 128 0 0 0 0 0 0 0 0 0 0 153 255 128 0 0 0 0 0 0 191 255 89 0 0 0 0 0 0 0 0 0 0 0 0 0 153 255 128 0 0 0 230 255 51 0 0 0 153 255 128 0 0 0 0 0 0 0 0 0 0 0 0 0 0 0 0 0 0 0 0 0 0 0 0 0 0 0 0 0 0 115 128 26 0 0 0 77 128 64 0 0 0 0 0 0 0 0 0 0 0 0 0 0 0 0 115 128 128 128 128 128 128 128 64 0 0 0 0 0 0 0 0 0 0 0 0 0 0 0 0 202 224 45 0 0 0 134 224 112 0 0 0 0 0 0 0 0 0 0 0 0 0 0 0 0 202 224 45 0 0 0 134 224 112 0 0 0 0 202 224 45 0 0 0 134 224 112 0 0 0 0 0 0 0 0 0 0 0 0 0 0 0 0 202 224 45 0 0 0 134 224 112 0 0 0 0 202 224 45 0 0 0 134 224 112 0 0 0 0 0 0 0 0
0 0 0 0 0 0 0 0 0 0 0 0 0 0 153 255 128 0 0 0 0 0 0 0 0 0 0 153 255 128 0 0 0 0 0 0 105 140 49 0 0 0 0 0 0 0 0 0 0 0 0 0 153 255 128 0 0 0 230 255 51 0 0 0 153 255 128 0 0 0 0 0 0 0 0 0 0 0 0 0 0 0 0 0 0 0 0 0 0 0 0 0 0 0 0 0 0 115 128 26 0 0 0 77 128 64 0 0 0 0 0 0 0 0 0 0 0 0 0 0 0 0 115 128 128 128 128 128 128 128 64 0 0 0 0 0 0 0 0 0 0 0 0 0 0 0 0 202 224 45 0 0 0 134 224 112 0 0 0 0 0 0 0 0 0 0 0 0 0 0 0 0 202 224 45 0 0 0 134 224 112 0 0 0 0 202 224 45 0 0 0 134 224 112 0 0 0 0 0 0 0 0 0 0 0 0 0 0 0 0 202 224 45 0 0 0 134 224 112 0 0 0 0 202 224 45 0 0 0 134 224 112 0 0 0 0 0 0 0 0
0 0 0 0 0 0 0 0 0 0 0 0 0 0 92 153 77 0 0 0 0 0 0 82 102 102 102 133 153 77 0 0 0 0 0 0 0 0 0 0 0 0 0 0 0 0 0 0 82 102 102 102 133 153 77 0 0 0 138 153 112 102 102 102 133 153 77 0 0 0 0 0 0 0 0 0 0 0 0 0 0 0 0 0 0 0 0 0 0 0 0 0 0 0 0 0 0 69 77 56 51 51 51 67 77 39 0 0 0 0 0 0 0 0 0 0 0 0 0 0 0 0 115 128 128 128 128 128 128 128 64 0 0 0 0 0 0 0 0 0 0 0 0 0 0 0 0 121 134 98 90 90 90 117 134 68 0 0 0 0 0 0 0 0 0 0 0 0 0 0 0 0 121 134 27 0 0 0 81 134 68 0 0 0 0 121 134 98 90 90 90 117 134 68 0 0 0 0 0 0 0 0 0 0 0 0 0 0 0 0 121 134 98 90 90 90 117 134 68 0 0 0 0 121 134 27 0 0 0 81 134 68 0 0 0 0 0 0 0 0
0 0 0 0 0 0 0 0 0 0 0 0 0 0 0 0 0 0 0 0 0 0 0 204 255 255 255 102 0 0 0 0 0 0 0 0 0 0 0 0 0 0 0 0 0 0 0 0 204 255 255 255 102 0 0 0 0 0 0 0 204 255 255 255 102 0 0 0 0 0 0 0 0 0 0 0 0 0 0 0 0 0 0 0 0 0 0 0 0 0 0 0 0 0 0 0 0 0 0 102 128 128 128 51 0 0 0 0 0 0 0 0 0 0 0 0 0 0 0 0 0 0 115 128 128 128 128 128 128 128 64 0 0 0 0 0 0 0 0 0 0 0 0 0 0 0 0 0 0 179 224 224 224 90 0 0 0 0 0 0 0 0 0 0 0 0 0 0 0 0 0 0 0 0 0 0 0 0 0 0 0 0 0 0 0 0 0 179 224 224 224 90 0 0 0 0 0 0 0 0 0 0 0 0 0 0 0 0 0 0 0 0 179 224 224 224 90 0 0 0 0 0 0 0 0 0 0 0 0 0 0 0 0 0 0 0 0 0 0 0
0 0 0 0 0 0 0 0 0 0 0 0 0 0 46 76 38 0 0 0 0 69 76 158 179 179 179 71 0 0 0 0 0 0 0 0 0 0 0 0 0 0 0 0 0 0 0 0 143 179 179 179 117 76 38 0 0 0 0 0 143 179 179 179 117 76 38 0 0 0 0 0 0 0 0 0 0 0 0 0 0 0 0 0 0 0 0 0 0 0 0 0 0 0 0 0 0 35 38 79 90 90 90 59 38 19 0 0 0 0 0 0 0 0 0 0 0 0 0 0 0 0 115 128 128 128 128 128 128 128 64 0 0 0 0 0 0 0 0 0 0 0 0 0 0 0 0 61 67 139 157 157 157 103 67 33 0 0 0 0 0 0 0 0 0 0 0 0 0 0 0 0 61 67 13 0 0 0 40 67 33 0 0 0 0 0 0 126 157 157 157 103 67 33 0 0 0 0 0 0 0 0 0 0 0 0 0 0 0 0 61 67 139 157 157 157 62 0 0 0 0 0 0 61 67 13 0 0 0 40 67 33 0 0 0 0 0 0 0 0
0 0 0 0 0 0 0 0 0 0 0 0 0 0 153 255 128 0 0 0 0 230 255 51 0 0 0 0 0 0 0 0 0 0 0 0 48 64 22 0 0 0 0 0 0 0 0 0 0 0 0 0 153 255 128 0 0 0 0 0 0 0 0 0 153 255 127 0 0 0 0 0 0 0 0 0 0 0 0 0 0 0 0 0 0 0 0 0 0 0 0 0 0 0 0 0 0 115 128 26 0 0 0 77 128 64 0 0 0 0 0 0 0 0 0 0 0 0 0 0 0 0 115 128 128 128 128 128 128 128 64 0 0 0 0 0 0 0 0 0 0 0 0 0 0 0 0 202 224 45 0 0 0 134 224 112 0 0 0 0 0 0 0 0 0 0 0 0 0 0 0 0 202 224 45 0 0 0 134 224 112 0 0 0 0 0 0 0 0 0 0 134 224 112 0 0 0 0 0 0 0 0 0 0 0 0 0 0 0 0 202 224 45 0 0 0 0 0 0 0 0 0 0 202 224 45 0 0 0 134 224 112 0 0 0 0 0 0 0 0
0 0 0 0 0 0 0 0 0 0 0 0 0 0 153 255 128 0 0 0 0 230 255 51 0 0 0 0 0 0 0 0 0 0 0 0 191 255 89 0 0 0 0 0 0 0 0 0 0 0 0 0 153 255 128 0 0 0 0 0 0 0 0 0 153 255 127 0 0 0 0 0 0 0 0 0 0 0 0 0 0 0 0 0 0 0 0 0 0 0 0 0 0 0 0 0 0 115 128 26 0 0 0 77 128 64 0 0 0 0 0 0 0 0 0 0 0 0 0 0 0 0 115 128 128 128 128 128 128 128 64 0 0 0 0 0 0 0 0 0 0 0 0 0 0 0 0 202 224 45 0 0 0 134 224 112 0 0 0 0 0 0 0 0 0 0 0 0 0 0 0 0 202 224 45 0 0 0 134 224 112 0 0 0 0 0 0 0 0 0 0 134 224 112 0 0 0 0 0 0 0 0 0 0 0 0 0 0 0 0 202 224 45 0 0 0 0 0 0 0 0 0 0 202 224 45 0 0 0 134 224 112 0 0 0 0 0 0 0 0
0 0 0 0 0 0 0 0 0 0 0 0 0 0 153 255 128 0 0 0 0 230 255 51 0 0 0 0 0 0 0 0 0 0 0 0 163 217 76 0 0 0 0 0 0 0 0 0 0 0 0 0 153 255 128 0 0 0 0 0 0 0 0 0 153 255 127 0 0 0 0 0 0 0 0 0 0 0 0 0 0 0 0 0 0 0 0 0 0 0 0 0 0 0 0 0 0 115 128 26 0 0 0 77 128 64 0 0 0 0 0 0 0 0 0 0 0 0 0 0 0 0 115 128 128 128 128 128 128 128 64 0 0 0 0 0 0 0 0 0 0 0 0 0 0 0 0 202 224 45 0 0 0 134 224 112 0 0 0 0 0 0 0 0 0 0 0 0 0 0 0 0 202 224 45 0 0 0 134 224 112 0 0 0 0 0 0 0 0 0 0 134 224 112 0 0 0 0 0 0 0 0 0 0 0 0 0 0 0 0 202 224 45 0 0 0 0 0 0 0 0 0 0 202 224 45 0 0 0 134 224 112 0 0 0 0 0 0 0 0
0 0 0 0 0 0 0 0 0 0 0 0 0 0 138 229 115 0 0 0 0 207 229 66 26 26 26 10 0 0 0 0 0 0 0 0 0 0 0 0 0 0 0 0 0 0 0 0 20 26 26 26 148 229 115 0 0 0 0 0 0 0 0 0 138 229 115 0 0 0 0 0 0 0 0 0 0 0 0 0 0 0 0 0 0 0 0 0 0 0 0 0 0 0 0 0 0 104 115 23 0 0 0 69 115 58 0 0 0 0 0 0 0 0 0 0 0 0 0 0 0 0 115 128 128 128 128 128 128 128 64 0 0 0 0 0 0 0 0 0 0 0 0 0 0 0 0 182 201 58 23 23 23 130 201 101 0 0 0 0 0 0 0 0 0 0 0 0 0 0 0 0 182 201 58 23 23 23 130 201 101 0 0 0 0 0 0 18 23 23 23 130 201 101 0 0 0 0 0 0 0 0 0 0 0 0 0 0 0 0 182 201 40 0 0 0 0 0 0 0 0 0 0 182 201 40 0 0 0 121 201 101 0 0 0 0 0 0 0 0
0 0 0 0 0 0 0 0 0 0 0 0 0 0 0 0 0 0 0 0 0 0 0 204 255 255 255 102 0 0 0 0 0 0 0 0 0 0 0 0 0 0 0 0 0 0 0 0 204 255 255 255 102 0 0 0 0 0 0 0 0 0 0 0 0 0 0 0 0 0 0 0 0 0 0 0 0 0 0 0 0 0 0 0 0 0 0 0 0 0 0 0 0 0 0 0 0 0 0 0 0 0 0 0 0 0 0 0 0 0 0 0 0 0 0 0 0 0 0 0 0 0 115 128 128 128 128 128 128 128 64 0 0 0 0 0 0 0 0 0 0 0 0 0 0 0 0 0 0 179 224 224 224 90 0 0 0 0 0 0 0 0 0 0 0 0 0 0 0 0 0 0 0 0 179 224 224 224 90 0 0 0 0 0 0 0 0 179 224 224 224 90 0 0 0 0 0 0 0 0 0 0 0 0 0 0 0 0 0 0 0 0 0 0 0 0 0 0 0 0 0 0 0 0 0 0 0 0 0 0 0 0 0 0 0 0 0 0 0 0
0 0 0 0 0 0 0 0 0 0 0 0 0 0 0 0 0 0 0 0 0 0 0 204 255 255 255 102 0 0 0 0 0 0 0 0 0 0 0 0 0 0 0 0 0 0 0 0 204 255 255 255 102 0 0 0 0 0 0 0 0 0 0 0 0 0 0 0 0 0 0 0 0 0 0 0 0 0 0 0 0 0 0 0 0 0 0 0 0 0 0 0 0 0 0 0 0 0 0 0 0 0 0 0 0 0 0 0 0 0 0 0 0 0 0 0 0 0 0 0 0 0 115 128 128 128 128 128 128 128 64 0 0 0 0 0 0 0 0 0 0 0 0 0 0 0 0 0 0 179 224 224 224 90 0 0 0 0 0 0 0 0 0 0 0 0 0 0 0 0 0 0 0 0 179 224 224 224 90 0 0 0 0 0 0 0 0 179 224 224 224 90 0 0 0 0 0 0 0 0 0 0 0 0 0 0 0 0 0 0 0 0 0 0 0 0 0 0 0 0 0 0 0 0 0 0 0 0 0 0 0 0 0 0 0 0 0 0 0 0
0 0 0 0 0 0 0 0 0 0 0 0 0 0 0 0 0 0 0 0 0 0 0 0 0 0 0 0 0 0 0 0 0 0 0 0 0 0 0 0 0 0 0 0 0 0 0 0 0 0 0 0 0 0 0 0 0 0 0 0 0 0 0 0 0 0 0 0 0 0 0 0 0 0 0 0 0 0 0 0 0 0 0 0 0 0 0 0 0 0 0 0 0 0 0 0 0 0 0 0 0 0 0 0 0 0 0 0 0 0 0 0 0 0 0 0 0 0 0 0 0 0 0 0 0 0 0 0 0 0 0 0 0 0 0 0 0 0 0 0 0 0 0 0 0 0 0 0 0 0 0 0 0 0 0 0 0 0 0 0 0 0 0 0 0 0 0 0 0 0 0 0 0 0 0 0 0 0 0 0 0 0 0 0 0 0 0 0 0 0 0 0 0 0 0 0 0 0 0 0 0 0 0 0 0 0 0 0 0 0 0 0 0 0 0 0 0 0 0 0 0 0 0 0 0 0 0 0 0 0 0 0 0 0 0 0 0 0 0 0
0 0 0 0 0 0 0 0 0 0 0 0 0 0 0 0 0 0 0 0 0 0 0 0 0 0 0 0 0 0 0 0 0 0 0 0 0 0 0 0 0 0 0 0 0 0 0 0 0 0 0 0 0 0 0 0 0 0 0 0 0 0 0 0 0 0 0 0 0 0 0 0 0 0 0 0 0 0 0 0 0 0 0 0 0 0 0 0 0 0 0 0 0 0 0 0 0 0 0 0 0 0 0 0 0 0 0 0 0 0 0 0 0 0 0 0 0 0 0 0 0 0 0 0 0 0 0 0 0 0 0 0 0 0 0 0 0 0 0 0 0 0 0 0 0 0 0 0 0 0 0 0 0 0 0 0 0 0 0 0 0 0 0 0 0 0 0 0 0 0 0 0 0 0 0 0 0 0 0 0 0 0 0 0 0 0 0 0 0 0 0 0 0 0 0 0 0 0 0 0 0 0 0 0 0 0 0 0 0 0 0 0 0 0 0 0 0 0 0 0 0 0 0 0 0 0 0 0 0 0 0 0 0 0 0 0 0 0 0 0
0 0 0 0 0 0 0 0 0 0 0 0 0 0 0 0 0 0 0 0 0 0 0 0 0 0 0 0 0 0 0 0 0 0 0 0 0 0 0 0 0 0 0 0 0 0 0 0 0 0 0 0 0 0 0 0 0 0 0 0 0 0 0 0 0 0 0 0 0 0 0 0 0 0 0 0 0 0 0 0 0 0 0 0 0 0 0 0 0 0 0 0 0 0 0 0 0 0 0 0 0 0 0 0 0 0 0 0 0 0 0 0 0 0 0 0 0 0 0 0 0 0 0 0 0 0 0 0 0 0 0 0 0 0 0 0 0 0 0 0 0 0 0 0 0 0 0 0 0 0 0 0 0 0 0 0 0 0 0 0 0 0 0 0 0 0 0 0 0 0 0 0 0 0 0 0 0 0 0 0 0 0 0 0 0 0 0 0 0 0 0 0 0 0 0 0 0 0 0 0 0 0 0 0 0 0 0 0 0 0 0 0 0 0 0 0 0 0 0 0 0 0 0 0 0 0 0 0 0 0 0 0 0 0 0 0 0 0 0 0
0 0 0 0 0 0 0 0 0 0 0 0 0 0 0 0 0 0 0 0 0 0 0 0 0 0 0 0 0 0 0 0 0 0 0 0 0 0 0 0 0 0 0 0 0 0 0 0 0 0 0 0 0 0 0 0 0 0 0 0 0 0 0 0 0 0 0 0 0 0 0 0 0 0 0 0 0 0 0 0 0 0 0 0 0 0 0 0 0 0 0 0 0 0 0 0 0 0 0 0 0 0 0 0 0 0 0 0 0 0 0 0 0 0 0 0 0 0 0 0 0 0 0 0 0 0 0 0 0 0 0 0 0 0 0 0 0 0 0 0 0 0 0 0 0 0 0 0 0 0 0 0 0 0 0 0 0 0 0 0 0 0 0 0 0 0 0 0 0 0 0 0 0 0 0 0 0 0 0 0 0 0 0 0 0 0 0 0 0 0 0 0 0 0 0 0 0 0 0 0 0 0 0 0 0 0 0 0 0 0 0 0 0 0 0 0 0 0 0 0 0 0 0 0 0 0 0 0 0 0 0 0 0 0 0 0 0 0 0 0
0 0 0 0 0 0 0 0 0 0 0 0 0 0 0 0 0 0 0 0 0 0 0 0 0 0 0 0 0 0 0 0 0 0 0 0 0 0 0 0 0 0 0 0 0 0 0 0 0 0 0 0 0 0 0 0 0 0 0 0 0 0 0 0 0 0 0 0 0 0 0 0 0 0 0 0 0 0 0 0 0 0 0 0 0 0 0 0 0 0 0 0 0 0 0 0 0 0 0 0 0 0 0 0 0 0 0 0 0 0 0 0 0 0 0 0 0 0 0 0 0 0 0 0 0 0 0 0 0 0 0 0 0 0 0 0 0 0 0 0 0 0 0 0 0 0 0 0 0 0 0 0 0 0 0 0 0 0 0 0 0 0 0 0 0 0 0 0 0 0 0 0 0 0 0 0 0 0 0 0 0 0 0 0 0 0 0 0 0 0 0 0 0 0 0 0 0 0 0 0 0 0 0 0 0 0 0 0 0 0 0 0 0 0 0 0 0 0 0 0 0 0 0 0 0 0 0 0 0 0 0 0 0 0 0 0 0 0 0 0
0 0 0 0 0 0 0 0 0 0 0 0 0 0 0 0 0 0 0 0 0 0 0 0 0 0 0 0 0 0 0 0 0 0 0 0 0 0 0 0 0 0 0 0 0 0 0 0 0 0 0 0 0 0 0 0 0 0 0 0 0 0 0 0 0 0 0 0 0 0 0 0 0 0 0 0 0 0 0 0 0 0 0 0 0 0 0 0 0 0 0 0 0 0 0 0 0 0 0 0 0 0 0 0 0 0 0 0 0 0 0 0 0 0 0 0 0 0 0 0 0 0 0 0 0 0 0 0 0 0 0 0 0 0 0 0 0 0 0 0 0 0 0 0 0 0 0 0 0 0 0 0 0 0 0 0 0 0 0 0 0 0 0 0 0 0 0 0 0 0 0 0 0 0 0 0 0 0 0 0 0 0 0 0 0 0 0 0 0 0 0 0 0 0 0 0 0 0 0 0 0 0 0 0 0 0 0 0 0 0 0 0 0 0 0 0 0 0 0 0 0 0 0 0 0 0 0 0 0 0 0 0 0 0 0 0 0 0 0 0
0 0 0 0 0 0 0 0 0 0 0 0 0 0 0 0 0 0 0 0 0 0 0 0 0 0 0 0 0 0 0 0 0 0 0 0 0 0 0 0 0 0 0 0 0 0 0 0 0 0 0 0 0 0 0 0 0 0 0 0 0 0 0 0 0 0 0 0 0 0 0 0 0 0 0 0 0 0 0 0 0 0 0 0 0 0 0 0 0 0 0 0 0 0 0 0 0 0 0 0 0 0 0 0 0 0 0 0 0 0 0 0 0 0 0 0 0 0 0 0 0 0 0 0 0 0 0 0 0 0 0 0 0 0 0 0 0 0 0 0 0 0 0 0 0 0 0 0 0 0 0 0 0 0 0 0 0 0 0 0 0 0 0 0 0 0 0 0 0 0 0 0 0 0 0 0 0 0 0 0 0 0 0 0 0 0 0 0 0 0 0 0 0 0 0 0 0 0 0 0 0 0 0 0 0 0 0 0 0 0 0 0 0 0 0 0 0 0 0 0 0 0 0 0 0 0 0 0 0 0 0 0 0 0 0 0 0 0 0 0
0 0 0 0 0 0 0 0 0 0 0 0 0 0 0 0 0 0 0 0 0 0 0 0 0 0 0 0 0 0 0 0 0 0 0 0 0 0 0 0 0 0 0 0 0 0 0 0 0 0 0 0 0 0 0 0 0 0 0 0 0 0 0 0 0 0 0 0 0 0 0 0 0 0 0 0 0 0 0 0 0 0 0 0 0 0 0 0 0 0 0 0 0 0 0 0 0 0 0 0 0 0 0 0 0 0 0 0 0 0 0 0 0 0 0 0 0 0 0 0 0 0 0 0 0 0 0 0 0 0 0 0 0 0 0 0 0 0 0 0 0 0 0 0 0 0 0 0 0 0 0 0 0 0 0 0 0 0 0 0 0 0 0 0 0 0 0 0 0 0 0 0 0 0 0 0 0 0 0 0 0 0 0 0 0 0 0 0 0 0 0 0 0 0 0 0 0 0 0 0 0 0 0 0 0 0 0 0 0 0 0 0 0 0 0 0 0 0 0 0 0 0 0 0 0 0 0 0 0 0 0 0 0 0 0 0 0 0 0 0
0 0 0 0 0 0 0 0 0 0 0 0 0 0 0 0 0 0 0 0 0 0 0 0 0 0 0 0 0 0 0 0 0 0 0 0 0 0 0 0 0 0 0 0 0 0 0 0 0 0 0 0 0 0 0 0 0 0 0 0 0 0 0 0 0 0 0 0 0 0 0 0 0 0 0 0 0 0 0 0 0 0 0 0 0 0 0 0 0 0 0 0 0 0 0 0 0 0 0 0 0 0 0 0 0 0 0 0 0 0 0 0 0 0 0 0 0 0 0 0 0 0 0 0 0 0 0 0 0 0 0 0 0 0 0 0 0 0 0 0 0 0 0 0 0 0 0 0 0 0 0 0 0 0 0 0 0 0 0 0 0 0 0 0 0 0 0 0 0 0 0 0 0 0 0 0 0 0 0 0 0 0 0 0 0 0 0 0 0 0 0 0 0 0 0 0 0 0 0 0 0 0 0 0 0 0 0 0 0 0 0 0 0 0 0 0 0 0 0 0 0 0 0 0 0 0 0 0 0 0 0 0 0 0 0 0 0 0 0 0
