P2
# scootbar snapshot `bar-clipped-1.25x`: the bar at 70x20 and scale 1.25, too narrow: its sections clipped
# Made by the test of that name in src/snapshots/tests.rs; to update it,
# SCOOTBAR_BLESS=1 cargo test -p scootbar snapshots (src/snapshots.rs).
88 25
255
0 0 0 0 0 0 0 0 0 0 0 0 0 0 0 0 0 0 0 0 0 0 0 0 0 0 0 0 0 0 0 0 0 0 0 0 0 0 0 0 0 0 0 0 0 0 0 0 0 0 0 0 0 0 0 0 0 0 0 0 0 0 0 0 0 0 0 0 0 0 0 0 0 0 0 0 0 0 0 0 0 0 0 0 0 0 0 0
0 0 0 0 0 0 0 0 0 0 0 0 0 0 0 0 0 0 0 0 0 0 0 0 0 0 0 0 0 0 0 0 0 0 0 0 0 0 0 0 0 0 0 0 0 0 0 0 0 0 0 0 0 0 0 0 0 0 0 0 0 0 0 0 0 0 0 0 0 0 0 0 0 0 0 0 0 0 0 0 0 0 0 0 0 0 0 0
0 0 0 0 0 0 0 0 0 0 0 0 0 0 0 0 0 0 0 0 0 0 0 0 0 0 0 0 0 0 0 0 0 0 0 0 0 0 0 0 0 0 0 0 0 0 0 0 0 0 0 0 0 0 0 0 0 0 0 0 0 0 0 0 0 0 0 0 0 0 0 0 0 0 0 0 0 0 0 0 0 0 0 0 0 0 0 0
0 0 0 0 0 0 0 0 0 0 0 0 0 0 0 0 0 0 0 0 0 0 0 0 0 0 0 0 0 0 0 0 0 0 0 0 0 0 0 0 0 0 0 0 0 0 0 0 0 0 0 0 0 0 0 0 0 0 0 0 0 0 0 0 0 0 0 0 0 0 0 0 0 0 0 0 0 0 0 0 0 0 0 0 0 0 0 0
0 0 0 0 0 0 0 0 0 0 0 0 0 0 0 0 0 0 0 0 0 0 0 0 0 0 0 0 0 0 0 0 0 0 0 0 0 0 0 0 0 0 0 0 0 0 0 0 0 0 0 0 0 0 0 0 0 0 0 0 0 0 0 0 0 0 0 0 0 0 0 0 0 0 0 0 0 0 0 0 0 0 0 0 0 0 0 0
0 0 0 0 0 0 0 0 0 0 0 0 0 0 0 0 0 0 0 32 64 64 64 0 0 0 0 0 0 0 0 0 0 0 0 0 0 0 0 0 32 64 64 64 0 0 0 0 0 0 0 0 0 0 0 0 0 0 0 0 0 0 0 0 0 0 0 0 0 0 0 24 48 48 48 0 0 0 0 0 0 0 0 0 0 0 0 0
0 0 0 0 0 0 0 0 0 0 0 0 0 0 0 0 0 0 0 128 255 255 255 0 0 0 0 0 0 0 0 0 0 0 0 0 0 0 0 0 128 255 255 255 0 0 0 0 0 0 0 0 0 0 0 0 0 0 0 0 0 0 0 0 0 0 0 0 0 0 0 96 192 192 192 0 0 0 0 0 0 0 0 0 0 0 0 0
0 0 0 0 0 0 0 0 0 0 0 0 128 96 0 0 0 0 0 64 128 128 128 128 96 0 0 0 0 0 0 0 0 0 0 0 0 0 0 0 64 128 128 128 128 96 0 0 32 128 64 0 0 0 128 96 0 0 0 0 0 0 0 0 0 0 0 0 0 24 96 96 96 96 96 96 72 0 0 0 0 0 0 0 0 0 0 0
0 0 0 0 0 0 0 0 0 0 0 0 255 191 0 0 0 0 0 0 0 0 0 255 191 0 0 0 0 0 100 159 20 0 0 0 0 0 0 0 0 0 0 0 255 191 0 0 64 255 128 0 0 0 255 191 0 0 0 0 0 0 0 0 0 0 0 0 0 48 192 96 0 0 0 192 144 0 0 0 0 0 0 0 0 0 0 0
0 0 0 0 0 0 0 0 0 0 0 0 255 191 0 0 0 0 0 0 0 0 0 255 191 0 0 0 0 0 159 255 32 0 0 0 0 0 0 0 0 0 0 0 255 191 0 0 64 255 128 0 0 0 255 191 0 0 0 0 0 0 0 0 0 0 0 0 0 48 192 96 0 0 0 192 144 0 0 0 0 0 0 0 0 0 0 0
0 0 0 0 0 0 0 0 0 0 0 0 255 191 0 0 0 0 0 0 0 0 0 255 191 0 0 0 0 0 20 32 4 0 0 0 0 0 0 0 0 0 0 0 255 191 0 0 64 255 128 0 0 0 255 191 0 0 0 0 0 0 0 0 0 0 0 0 0 48 192 96 0 0 0 192 144 0 0 0 0 0 0 0 0 0 0 0
0 0 0 0 0 0 0 0 0 0 0 0 0 0 0 0 0 0 0 128 255 255 255 0 0 0 0 0 0 0 0 0 0 0 0 0 0 0 0 0 128 255 255 255 0 0 0 0 0 0 128 255 255 255 0 0 0 0 0 0 0 0 0 0 0 0 0 0 0 0 0 96 192 192 192 0 0 0 0 0 0 0 0 0 0 0 0 0
0 0 0 0 0 0 0 0 0 0 0 0 64 48 0 0 0 16 64 128 191 191 191 0 0 0 0 0 0 0 0 0 0 0 0 0 0 0 0 0 96 191 191 191 64 48 0 0 0 0 96 191 191 191 64 48 0 0 0 0 0 0 0 0 0 0 0 0 0 12 48 96 144 144 144 48 36 0 0 0 0 0 0 0 0 0 0 0
0 0 0 0 0 0 0 0 0 0 0 0 255 191 0 0 0 64 255 128 0 0 0 0 0 0 0 0 0 0 60 96 12 0 0 0 0 0 0 0 0 0 0 0 255 191 0 0 0 0 0 0 0 0 255 191 0 0 0 0 0 0 0 0 0 0 0 0 0 48 192 96 0 0 0 192 144 0 0 0 0 0 0 0 0 0 0 0
0 0 0 0 0 0 0 0 0 0 0 0 255 191 0 0 0 64 255 128 0 0 0 0 0 0 0 0 0 0 159 255 32 0 0 0 0 0 0 0 0 0 0 0 255 191 0 0 0 0 0 0 0 0 255 191 0 0 0 0 0 0 0 0 0 0 0 0 0 48 192 96 0 0 0 192 144 0 0 0 0 0 0 0 0 0 0 0
0 0 0 0 0 0 0 0 0 0 0 0 255 191 0 0 0 64 255 128 0 0 0 0 0 0 0 0 0 0 60 96 12 0 0 0 0 0 0 0 0 0 0 0 255 191 0 0 0 0 0 0 0 0 255 191 0 0 0 0 0 0 0 0 0 0 0 0 0 48 192 96 0 0 0 192 144 0 0 0 0 0 0 0 0 0 0 0
0 0 0 0 0 0 0 0 0 0 0 0 64 48 0 0 0 16 64 128 191 191 191 0 0 0 0 0 0 0 0 0 0 0 0 0 0 0 0 0 96 191 191 191 64 48 0 0 0 0 0 0 0 0 64 48 0 0 0 0 0 0 0 0 0 0 0 0 0 12 48 96 144 144 144 48 36 0 0 0 0 0 0 0 0 0 0 0
0 0 0 0 0 0 0 0 0 0 0 0 0 0 0 0 0 0 0 128 255 255 255 0 0 0 0 0 0 0 0 0 0 0 0 0 0 0 0 0 128 255 255 255 0 0 0 0 0 0 0 0 0 0 0 0 0 0 0 0 0 0 0 0 0 0 0 0 0 0 0 96 192 192 192 0 0 0 0 0 0 0 0 0 0 0 0 0
0 0 0 0 0 0 0 0 0 0 0 0 0 0 0 0 0 0 0 0 0 0 0 0 0 0 0 0 0 0 0 0 0 0 0 0 0 0 0 0 0 0 0 0 0 0 0 0 0 0 0 0 0 0 0 0 0 0 0 0 0 0 0 0 0 0 0 0 0 0 0 0 0 0 0 0 0 0 0 0 0 0 0 0 0 0 0 0
0 0 0 0 0 0 0 0 0 0 0 0 0 0 0 0 0 0 0 0 0 0 0 0 0 0 0 0 0 0 0 0 0 0 0 0 0 0 0 0 0 0 0 0 0 0 0 0 0 0 0 0 0 0 0 0 0 0 0 0 0 0 0 0 0 0 0 0 0 0 0 0 0 0 0 0 0 0 0 0 0 0 0 0 0 0 0 0
0 0 0 0 0 0 0 0 0 0 0 0 0 0 0 0 0 0 0 0 0 0 0 0 0 0 0 0 0 0 0 0 0 0 0 0 0 0 0 0 0 0 0 0 0 0 0 0 0 0 0 0 0 0 0 0 0 0 0 0 0 0 0 0 0 0 0 0 0 0 0 0 0 0 0 0 0 0 0 0 0 0 0 0 0 0 0 0
0 0 0 0 0 0 0 0 0 0 0 0 0 0 0 0 0 0 0 0 0 0 0 0 0 0 0 0 0 0 0 0 0 0 0 0 0 0 0 0 0 0 0 0 0 0 0 0 0 0 0 0 0 0 0 0 0 0 0 0 0 0 0 0 0 0 0 0 0 0 0 0 0 0 0 0 0 0 0 0 0 0 0 0 0 0 0 0
0 0 0 0 0 0 0 0 0 0 0 0 0 0 0 0 0 0 0 0 0 0 0 0 0 0 0 0 0 0 0 0 0 0 0 0 0 0 0 0 0 0 0 0 0 0 0 0 0 0 0 0 0 0 0 0 0 0 0 0 0 0 0 0 0 0 0 0 0 0 0 0 0 0 0 0 0 0 0 0 0 0 0 0 0 0 0 0
0 0 0 0 0 0 0 0 0 0 0 0 0 0 0 0 0 0 0 0 0 0 0 0 0 0 0 0 0 0 0 0 0 0 0 0 0 0 0 0 0 0 0 0 0 0 0 0 0 0 0 0 0 0 0 0 0 0 0 0 0 0 0 0 0 0 0 0 0 0 0 0 0 0 0 0 0 0 0 0 0 0 0 0 0 0 0 0
0 0 0 0 0 0 0 0 0 0 0 0 0 0 0 0 0 0 0 0 0 0 0 0 0 0 0 0 0 0 0 0 0 0 0 0 0 0 0 0 0 0 0 0 0 0 0 0 0 0 0 0 0 0 0 0 0 0 0 0 0 0 0 0 0 0 0 0 0 0 0 0 0 0 0 0 0 0 0 0 0 0 0 0 0 0 0 0
