P3
# scootbar snapshot `fills`: span fills (overlapping, empty, clipped) and coverage blends inside and outside a clip
# Made by the test of that name in src/snapshots/tests.rs; to update it,
# SCOOTBAR_BLESS=1 cargo test -p scootbar snapshots (src/snapshots.rs).
24 4
255
30 30 46 255 0 0 255 0 0 255 0 0 0 255 0 0 255 0 0 255 0 30 30 46 30 30 46 30 30 46 30 30 46 30 30 46 30 30 46 30 30 46 30 30 46 30 30 46 30 30 46 30 30 46 30 30 46 30 30 46 0 0 255 0 0 255 0 0 255 0 0 255
30 30 46 255 0 0 255 0 0 255 0 0 0 255 0 0 255 0 0 255 0 30 30 46 30 30 46 30 30 46 30 30 46 30 30 46 86 86 98 30 30 46 143 143 151 30 30 46 255 255 255 30 30 46 30 30 46 30 30 46 0 0 255 0 0 255 0 0 255 0 0 255
30 30 46 255 0 0 255 0 0 255 0 0 0 255 0 0 255 0 0 255 0 30 30 46 30 30 46 30 30 46 30 30 46 30 30 46 85 79 78 30 30 46 140 128 111 30 30 46 249 226 175 30 30 46 30 30 46 30 30 46 0 0 255 0 0 255 0 0 255 0 0 255
30 30 46 255 0 0 255 0 0 255 0 0 0 255 0 0 255 0 0 255 0 30 30 46 30 30 46 30 30 46 30 30 46 30 30 46 30 30 46 30 30 46 30 30 46 30 30 46 30 30 46 30 30 46 30 30 46 30 30 46 0 0 255 0 0 255 0 0 255 0 0 255
