P2
# scootbar snapshot `icon-image-1x`: a 50x20 bar at scale 1: a 40x40 soft disc PNG scaled to the 14-pixel em, then text
# Made by the test of that name in src/snapshots/ (tests.rs, icons.rs); to update it,
# SCOOTBAR_BLESS=1 cargo test -p scootbar snapshots (src/snapshots.rs).
50 20
255
0 0 0 0 0 0 0 0 0 0 0 0 0 0 0 0 0 0 0 0 0 0 0 0 0 0 0 0 0 0 0 0 0 0 0 0 0 0 0 0 0 0 0 0 0 0 0 0 0 0
0 0 0 0 0 0 0 0 0 0 0 0 0 0 0 0 0 0 0 0 0 0 0 0 0 0 0 0 0 0 0 0 0 0 0 0 0 0 0 0 0 0 0 0 0 0 0 0 0 0
0 0 0 0 0 0 0 0 0 0 0 0 0 0 0 0 0 0 0 0 0 0 0 0 0 0 0 0 0 0 0 0 0 0 0 0 0 0 0 0 0 0 0 0 0 0 0 0 0 0
0 0 0 0 0 0 0 0 2 9 19 19 9 2 0 0 0 0 0 0 0 0 0 0 0 0 0 0 0 0 0 0 0 0 0 0 0 0 0 0 0 0 0 0 0 0 0 0 0 0
0 0 0 0 0 0 1 17 65 111 131 131 111 65 17 1 0 0 0 0 0 0 0 0 0 0 0 0 0 0 0 0 0 0 0 0 41 204 204 122 0 0 0 0 0 0 0 0 0 0
0 0 0 0 0 1 29 110 159 173 177 177 173 159 110 29 1 0 0 0 0 0 0 0 0 0 0 0 0 0 0 41 102 0 0 0 31 153 153 133 102 0 0 0 0 0 0 0 0 0
0 0 0 0 0 17 110 167 180 189 193 193 189 180 167 110 17 0 0 0 0 0 0 0 0 0 0 0 0 0 0 102 255 0 0 0 0 0 0 102 255 0 0 0 0 0 0 0 0 0
0 0 0 0 2 65 159 180 193 204 210 210 204 193 180 159 65 2 0 0 0 0 0 0 0 0 0 0 0 0 0 102 255 0 0 0 0 0 0 102 255 0 0 0 0 0 0 0 0 0
0 0 0 0 9 111 173 189 204 217 226 226 217 204 189 173 111 9 0 0 0 0 0 0 0 0 0 0 0 0 0 41 102 0 0 0 31 153 153 133 102 0 0 0 0 0 0 0 0 0
0 0 0 0 19 131 177 193 210 226 240 240 226 210 193 177 131 19 0 0 0 0 0 0 0 0 0 0 0 0 0 20 51 0 0 31 82 204 204 122 0 0 0 0 0 0 0 0 0 0
0 0 0 0 19 131 177 193 210 226 240 240 226 210 193 177 131 19 0 0 0 0 0 0 0 0 0 0 0 0 0 102 255 0 0 153 204 0 0 0 0 0 0 0 0 0 0 0 0 0
0 0 0 0 9 111 173 189 204 217 226 226 217 204 189 173 111 9 0 0 0 0 0 0 0 0 0 0 0 0 0 102 255 0 0 153 204 0 0 0 0 0 0 0 0 0 0 0 0 0
0 0 0 0 2 65 159 180 193 204 210 210 204 193 180 159 65 2 0 0 0 0 0 0 0 0 0 0 0 0 0 61 153 0 0 92 143 102 102 61 0 0 0 0 0 0 0 0 0 0
0 0 0 0 0 17 110 167 180 189 193 193 189 180 167 110 17 0 0 0 0 0 0 0 0 0 0 0 0 0 0 0 0 0 0 0 51 255 255 153 0 0 0 0 0 0 0 0 0 0
0 0 0 0 0 1 29 110 159 173 177 177 173 159 110 29 1 0 0 0 0 0 0 0 0 0 0 0 0 0 0 0 0 0 0 0 0 0 0 0 0 0 0 0 0 0 0 0 0 0
0 0 0 0 0 0 1 17 65 111 131 131 111 65 17 1 0 0 0 0 0 0 0 0 0 0 0 0 0 0 0 0 0 0 0 0 0 0 0 0 0 0 0 0 0 0 0 0 0 0
0 0 0 0 0 0 0 0 2 9 19 19 9 2 0 0 0 0 0 0 0 0 0 0 0 0 0 0 0 0 0 0 0 0 0 0 0 0 0 0 0 0 0 0 0 0 0 0 0 0
0 0 0 0 0 0 0 0 0 0 0 0 0 0 0 0 0 0 0 0 0 0 0 0 0 0 0 0 0 0 0 0 0 0 0 0 0 0 0 0 0 0 0 0 0 0 0 0 0 0
0 0 0 0 0 0 0 0 0 0 0 0 0 0 0 0 0 0 0 0 0 0 0 0 0 0 0 0 0 0 0 0 0 0 0 0 0 0 0 0 0 0 0 0 0 0 0 0 0 0
0 0 0 0 0 0 0 0 0 0 0 0 0 0 0 0 0 0 0 0 0 0 0 0 0 0 0 0 0 0 0 0 0 0 0 0 0 0 0 0 0 0 0 0 0 0 0 0 0 0
