P2
# scootbar snapshot `icon-path-1x`: a 90x20 bar at scale 1: a home path icon and text, a ring (arcs, even-odd hole by winding) in the warn token and text
# Made by the test of that name in src/snapshots/ (tests.rs, icons.rs); to update it,
# SCOOTBAR_BLESS=1 cargo test -p scootbar snapshots (src/snapshots.rs).
90 20
255
0 0 0 0 0 0 0 0 0 0 0 0 0 0 0 0 0 0 0 0 0 0 0 0 0 0 0 0 0 0 0 0 0 0 0 0 0 0 0 0 0 0 0 0 0 0 0 0 0 0 0 0 0 0 0 0 0 0 0 0 0 0 0 0 0 0 0 0 0 0 0 0 0 0 0 0 0 0 0 0 0 0 0 0 0 0 0 0 0 0
0 0 0 0 0 0 0 0 0 0 0 0 0 0 0 0 0 0 0 0 0 0 0 0 0 0 0 0 0 0 0 0 0 0 0 0 0 0 0 0 0 0 0 0 0 0 0 0 0 0 0 0 0 0 0 0 0 0 0 0 0 0 0 0 0 0 0 0 0 0 0 0 0 0 0 0 0 0 0 0 0 0 0 0 0 0 0 0 0 0
0 0 0 0 0 0 0 0 0 0 0 0 0 0 0 0 0 0 0 0 0 0 0 0 0 0 0 0 0 0 0 0 0 0 0 0 0 0 0 0 0 0 0 0 0 0 0 0 0 0 0 0 0 0 0 0 0 0 0 0 0 0 0 0 0 0 0 0 0 0 0 0 0 0 0 0 0 0 0 0 0 0 0 0 0 0 0 0 0 0
0 0 0 0 0 0 0 0 0 0 0 0 0 0 0 0 0 0 0 0 0 0 0 0 0 0 0 0 0 0 0 0 0 0 0 0 0 0 0 0 0 0 0 0 0 0 0 0 0 0 0 0 0 0 0 0 0 0 0 0 0 0 0 0 0 0 0 0 0 0 0 0 0 0 0 0 0 0 0 0 0 0 0 0 0 0 0 0 0 0
0 0 0 0 0 0 0 0 0 0 9 9 0 0 0 0 0 0 0 0 0 0 0 0 0 0 0 0 0 0 0 0 0 0 0 0 41 204 204 122 0 0 0 0 0 0 0 0 0 0 0 0 0 0 0 0 0 0 0 0 0 47 118 151 151 118 47 0 0 0 0 0 0 0 0 0 0 0 0 0 0 31 154 154 92 0 0 0 0 0
0 0 0 0 0 0 0 0 0 17 195 195 17 0 0 0 0 0 0 0 0 0 0 0 0 0 0 0 0 0 0 41 102 0 0 0 31 153 153 133 102 0 0 0 0 0 0 0 0 0 0 0 0 0 0 0 0 0 0 5 122 192 192 192 192 192 192 122 5 0 0 0 0 0 0 0 0 0 0 0 46 84 115 115 100 77 0 0 0 0
0 0 0 0 0 0 0 0 29 212 255 255 212 29 0 0 0 0 0 0 0 0 0 0 0 0 0 0 0 0 0 102 255 0 0 0 0 0 0 102 255 0 0 0 0 0 0 0 0 0 0 0 0 0 0 0 0 0 0 122 192 192 164 108 108 164 192 192 122 0 0 0 0 0 0 0 0 0 0 0 115 154 0 0 77 192 0 0 0 0
0 0 0 0 0 0 0 43 226 255 255 255 255 226 43 0 0 0 0 0 0 0 0 0 0 0 0 0 0 0 0 102 255 0 0 0 0 0 0 102 255 0 0 0 0 0 0 0 0 0 0 0 0 0 0 0 0 0 47 192 192 113 3 0 0 3 113 192 192 47 0 0 0 0 0 0 0 0 0 0 115 154 0 0 77 192 0 0 0 0
0 0 0 0 0 0 60 238 255 255 255 255 255 255 238 60 0 0 0 0 0 0 0 0 0 0 0 0 0 0 0 41 102 0 0 0 31 153 153 133 102 0 0 0 0 0 0 0 0 0 0 0 0 0 0 0 0 0 118 192 164 3 0 0 0 0 3 164 192 118 0 0 0 0 0 0 0 0 0 0 46 84 115 115 100 77 0 0 0 0
0 0 0 0 0 80 246 255 255 255 255 255 255 255 255 246 80 0 0 0 0 0 0 0 0 0 0 0 0 0 0 20 51 0 0 31 82 204 204 122 0 0 0 0 0 0 0 0 0 0 0 0 0 0 0 0 0 0 151 192 108 0 0 0 0 0 0 108 192 151 0 0 0 0 0 0 0 0 0 0 0 31 154 154 108 38 0 0 0 0
0 0 0 0 0 0 21 255 255 255 255 255 255 255 255 21 0 0 0 0 0 0 0 0 0 0 0 0 0 0 0 102 255 0 0 153 204 0 0 0 0 0 0 0 0 0 0 0 0 0 0 0 0 0 0 0 0 0 151 192 108 0 0 0 0 0 0 108 192 151 0 0 0 0 0 0 0 0 0 0 0 0 0 0 77 192 0 0 0 0
0 0 0 0 0 0 21 255 255 220 42 42 220 255 255 21 0 0 0 0 0 0 0 0 0 0 0 0 0 0 0 102 255 0 0 153 204 0 0 0 0 0 0 0 0 0 0 0 0 0 0 0 0 0 0 0 0 0 118 192 164 3 0 0 0 0 3 164 192 118 0 0 0 0 0 0 0 0 0 0 0 0 0 0 77 192 0 0 0 0
0 0 0 0 0 0 21 255 255 212 0 0 213 255 255 21 0 0 0 0 0 0 0 0 0 0 0 0 0 0 0 61 153 0 0 92 143 102 102 61 0 0 0 0 0 0 0 0 0 0 0 0 0 0 0 0 0 0 47 192 192 113 3 0 0 3 113 192 192 47 0 0 0 0 0 0 0 0 0 0 0 15 77 77 92 115 0 0 0 0
0 0 0 0 0 0 21 255 255 212 0 0 213 255 255 21 0 0 0 0 0 0 0 0 0 0 0 0 0 0 0 0 0 0 0 0 51 255 255 153 0 0 0 0 0 0 0 0 0 0 0 0 0 0 0 0 0 0 0 122 192 192 164 108 108 164 192 192 122 0 0 0 0 0 0 0 0 0 0 0 0 38 192 192 115 0 0 0 0 0
0 0 0 0 0 0 14 170 170 142 0 0 142 170 170 14 0 0 0 0 0 0 0 0 0 0 0 0 0 0 0 0 0 0 0 0 0 0 0 0 0 0 0 0 0 0 0 0 0 0 0 0 0 0 0 0 0 0 0 5 122 192 192 192 192 192 192 122 5 0 0 0 0 0 0 0 0 0 0 0 0 0 0 0 0 0 0 0 0 0
0 0 0 0 0 0 0 0 0 0 0 0 0 0 0 0 0 0 0 0 0 0 0 0 0 0 0 0 0 0 0 0 0 0 0 0 0 0 0 0 0 0 0 0 0 0 0 0 0 0 0 0 0 0 0 0 0 0 0 0 0 47 118 151 151 118 47 0 0 0 0 0 0 0 0 0 0 0 0 0 0 0 0 0 0 0 0 0 0 0
0 0 0 0 0 0 0 0 0 0 0 0 0 0 0 0 0 0 0 0 0 0 0 0 0 0 0 0 0 0 0 0 0 0 0 0 0 0 0 0 0 0 0 0 0 0 0 0 0 0 0 0 0 0 0 0 0 0 0 0 0 0 0 0 0 0 0 0 0 0 0 0 0 0 0 0 0 0 0 0 0 0 0 0 0 0 0 0 0 0
0 0 0 0 0 0 0 0 0 0 0 0 0 0 0 0 0 0 0 0 0 0 0 0 0 0 0 0 0 0 0 0 0 0 0 0 0 0 0 0 0 0 0 0 0 0 0 0 0 0 0 0 0 0 0 0 0 0 0 0 0 0 0 0 0 0 0 0 0 0 0 0 0 0 0 0 0 0 0 0 0 0 0 0 0 0 0 0 0 0
0 0 0 0 0 0 0 0 0 0 0 0 0 0 0 0 0 0 0 0 0 0 0 0 0 0 0 0 0 0 0 0 0 0 0 0 0 0 0 0 0 0 0 0 0 0 0 0 0 0 0 0 0 0 0 0 0 0 0 0 0 0 0 0 0 0 0 0 0 0 0 0 0 0 0 0 0 0 0 0 0 0 0 0 0 0 0 0 0 0
0 0 0 0 0 0 0 0 0 0 0 0 0 0 0 0 0 0 0 0 0 0 0 0 0 0 0 0 0 0 0 0 0 0 0 0 0 0 0 0 0 0 0 0 0 0 0 0 0 0 0 0 0 0 0 0 0 0 0 0 0 0 0 0 0 0 0 0 0 0 0 0 0 0 0 0 0 0 0 0 0 0 0 0 0 0 0 0 0 0
